; generated by PrusaSlicer 2.8.0+win64 on 2024-10-21 at 20:10:00 UTC


;
;
; 

; external perimeters extrusion width = 0.60mm
; perimeters extrusion width = 0.50mm
; infill extrusion width = 0.50mm
; solid infill extrusion width = 0.50mm
; top infill extrusion width = 0.45mm
; support material extrusion width = 0.38mm
; first layer extrusion width = 0.42mm

M73 P0 R56
M73 Q0 S56
M201 X1000 Y1000 Z200 E5000 ; sets maximum accelerations, mm/sec^2
M203 X200 Y200 Z12 E120 ; sets maximum feedrates, mm / sec
M204 S1250 T1250 ; sets acceleration (S) and retract acceleration (R), mm/sec^2
M205 X8.00 Y8.00 Z0.40 E4.50 ; sets the jerk limits, mm/sec
M205 S0 T0 ; sets the minimum extruding and travel feed rate, mm/sec

; printing object temp_box_base.stl id:0 copy 0
; stop printing object temp_box_base.stl id:0 copy 0

;TYPE:Custom
M862.3 P "MK3S" ; printer model check
M862.1 P0.4 ; nozzle diameter check
M115 U3.13.3 ; tell printer latest fw version
G90 ; use absolute coordinates
M83 ; extruder relative mode
M104 S205 ; set extruder temp
M140 S67 ; set bed temp
M190 S67 ; wait for bed temp
M109 S205 ; wait for extruder temp
G28 W ; home all without mesh bed level
G80 X138.285 Y19.2355 W81.1 H66.3497 ; mesh bed levelling

G1 Z0.2 F720
G1 Y-3 F1000 ; go outside print area
G92 E0
G1 X60 E9 F1000 ; intro line
G1 X100 E12.5 F1000 ; intro line

G92 E0
M221 S95

; Don't change E values below. Excessive value can damage the printer.

M907 E538 ; set extruder motor current
G21 ; set units to millimeters
G90 ; use absolute coordinates
M83 ; use relative distances for extrusion
M900 K0.05 ; Filament gcode LA 1.5
M900 K30 ; Filament gcode LA 1.0
M107
;LAYER_CHANGE
;Z:0.2
;HEIGHT:0.2
G1 E-.8 F2100
G1 Z.6 F720
; printing object temp_box_base.stl id:0 copy 0
G1 X163.606 Y81.427 F10800
G1 Z.2 F720
G1 E.8 F2100
M204 S800
;TYPE:Support material
;WIDTH:0.42
G1 F1200
G1 X163.48 Y82.735 E.0412
G1 X163.068 Y83.599 E.03001
G1 X162.406 Y84.39 E.03234
G1 X161.321 Y85.048 E.03979
G1 X160.072 Y85.296 E.03993
G1 X158.966 Y85.126 E.03509
G1 X158.191 Y85.396 E.02573
G1 X157.214 Y85.371 E.03064
G1 X156.521 Y85.215 E.02227
G1 X155.764 Y84.883 E.02592
G1 X154.784 Y84.053 E.04027
G1 X154.231 Y83.101 E.03452
G1 X153.995 Y82.079 E.03289
G1 X154.038 Y80.938 E.0358
G1 X154.218 Y80.52 E.01427
G1 X163.369 Y80.52 E.28692
G1 X163.592 Y81.372 E.02761
M204 S1000
G1 X163.592 Y81.372 F10800
G1 X162.914 Y83.518
M204 S800
G1 F1200
G1 X162.914 Y80.859 E.08337
G1 X162.495 Y80.859 E.01314
G1 X162.495 Y83.755 E.0908
G1 X162.076 Y84.194 E.01903
G1 X162.076 Y80.859 E.10457
G1 X161.657 Y80.859 E.01314
G1 X161.657 Y84.448 E.11253
G1 X161.238 Y84.702 E.01536
G1 X161.238 Y80.859 E.12049
G1 X160.819 Y80.859 E.01314
G1 X160.819 Y84.802 E.12363
G1 X160.4 Y84.885 E.01339
G1 X160.4 Y80.859 E.12623
G1 X159.981 Y80.859 E.01314
G1 X159.981 Y84.939 E.12793
G1 X159.562 Y84.874 E.01329
G1 X159.562 Y80.859 E.12589
G1 X159.143 Y80.859 E.01314
G1 X159.143 Y84.81 E.12388
G1 X158.934 Y84.778 E.00663
G1 X158.724 Y84.851 E.00697
G1 X158.724 Y80.859 E.12517
G1 X158.305 Y80.859 E.01314
G1 X158.305 Y84.997 E.12974
G1 X157.886 Y85.049 E.01324
G1 X157.886 Y80.859 E.13137
G1 X157.467 Y80.859 E.01314
G1 X157.467 Y85.038 E.13103
G1 X157.048 Y84.986 E.01324
G1 X157.048 Y80.859 E.1294
G1 X156.629 Y80.859 E.01314
G1 X156.627 Y84.891 E.12642
G1 X156.21 Y84.708 E.01428
G1 X156.21 Y80.859 E.12068
G1 X155.791 Y80.859 E.01314
G1 X155.791 Y84.478 E.11347
G1 X155.372 Y84.144 E.0168
G1 X155.372 Y80.859 E.103
G1 X154.953 Y80.859 E.01314
G1 X154.953 Y83.668 E.08807
G1 X154.534 Y82.905 E.02729
G1 X154.534 Y80.689 E.06948
M204 S1000
;WIPE_START
G1 F8640
G1 X154.534 Y82.905 E-.51168
G1 X154.953 Y83.668 E-.201
G1 X154.953 Y83.29 E-.08732
;WIPE_END
G1 Z.6 F720
G1 X205.606 Y81.427 F10800
G1 Z.2 F720
G1 E.8 F2100
M204 S800
G1 F1200
G1 X205.48 Y82.735 E.0412
G1 X205.068 Y83.599 E.03001
G1 X204.406 Y84.39 E.03234
G1 X203.321 Y85.048 E.03979
G1 X202.072 Y85.296 E.03993
G1 X200.966 Y85.126 E.03509
G1 X200.192 Y85.396 E.0257
G1 X199.214 Y85.371 E.03067
G1 X198.521 Y85.215 E.02227
G1 X197.764 Y84.883 E.02592
G1 X196.784 Y84.053 E.04027
G1 X196.231 Y83.101 E.03452
G1 X195.995 Y82.079 E.03289
G1 X196.038 Y80.938 E.0358
G1 X196.218 Y80.52 E.01427
G1 X205.369 Y80.52 E.28692
G1 X205.592 Y81.372 E.02761
M204 S1000
G1 X205.592 Y81.372 F10800
G1 X205.23 Y82.864
M204 S800
G1 F1200
G1 X205.23 Y81.331 E.04807
G1 X205.107 Y80.859 E.01529
G1 X204.811 Y80.859 E.00928
G1 X204.811 Y83.348 E.07804
G1 X204.392 Y83.878 E.02118
G1 X204.392 Y80.859 E.09466
G1 X203.973 Y80.859 E.01314
G1 X203.973 Y84.256 E.10651
G1 X203.554 Y84.51 E.01536
G1 X203.554 Y80.859 E.11447
G1 X203.135 Y80.859 E.01314
G1 X203.135 Y84.739 E.12165
G1 X202.716 Y84.822 E.01339
G1 X202.716 Y80.859 E.12426
G1 X202.297 Y80.859 E.01314
G1 X202.297 Y84.905 E.12686
G1 X201.878 Y84.923 E.01315
G1 X201.878 Y80.859 E.12742
G1 X201.459 Y80.859 E.01314
G1 X201.459 Y84.859 E.12542
G1 X201.041 Y84.794 E.01326
G1 X201.041 Y80.859 E.12338
G1 X200.622 Y80.859 E.01314
G1 X200.622 Y84.887 E.1263
G1 X200.203 Y85.033 E.01391
G1 X200.203 Y80.859 E.13087
G1 X199.784 Y80.859 E.01314
G1 X199.784 Y85.046 E.13128
G1 X199.365 Y85.036 E.01314
G1 X199.365 Y80.859 E.13097
G1 X198.946 Y80.859 E.01314
G1 X198.946 Y84.963 E.12868
G1 X198.627 Y84.891 E.01025
G1 X198.527 Y84.847 E.00343
G1 X198.527 Y80.859 E.12504
G1 X198.108 Y80.859 E.01314
G1 X198.108 Y84.663 E.11927
G1 X197.689 Y84.4 E.01551
G1 X197.689 Y80.859 E.11103
G1 X197.27 Y80.859 E.01314
G1 X197.27 Y84.046 E.09993
G1 X196.851 Y83.492 E.02178
G1 X196.851 Y80.859 E.08256
G1 X196.441 Y80.859 E.01286
G1 X196.432 Y83.109 E.07055
M204 S1000
;WIPE_START
G1 F8640
G1 X196.441 Y80.859 E-.51954
G1 X196.851 Y80.859 E-.09467
G1 X196.851 Y81.664 E-.18579
;WIPE_END
G1 Z.6 F720
G1 X205.762 Y19.545 F10800
G1 Z.2 F720
G1 E.8 F2100
M204 S800
G1 F1200
G1 X206.597 Y19.785 E.02724
G1 X207.67 Y20.59 E.04206
G1 X208.381 Y21.75 E.04266
G1 X208.614 Y23.093 E.04274
G1 X208.365 Y24.28 E.03803
G1 X198.632 Y24.28 E.30517
G1 X198.455 Y23.807 E.01583
G1 X198.399 Y22.608 E.03763
G1 X198.655 Y21.736 E.02849
G1 X199.071 Y20.982 E.027
G1 X199.85 Y20.217 E.03423
G1 X200.869 Y19.686 E.03603
G1 X202.046 Y19.508 E.03732
G1 X202.743 Y19.628 E.02218
G1 X203.571 Y19.502 E.02626
G1 X203.899 Y19.567 E.01048
G1 X205.174 Y19.425 E.04022
G1 X205.707 Y19.534 E.01706
M204 S1000
G1 X205.707 Y19.534 F10800
G1 X208.163 Y24.11
M204 S800
G1 F1200
G1 X208.163 Y22.48 E.05111
G1 X208.058 Y21.872 E.01935
G1 X207.744 Y21.361 E.01881
G1 X207.744 Y23.94 E.08086
G1 X207.325 Y23.94 E.01314
G1 X207.325 Y20.756 E.09983
G1 X206.906 Y20.441 E.01644
G1 X206.906 Y23.94 E.10971
G1 X206.487 Y23.94 E.01314
G1 X206.487 Y20.127 E.11955
G1 X206.068 Y19.986 E.01386
G1 X206.068 Y23.94 E.12397
G1 X205.649 Y23.94 E.01314
G1 X205.649 Y19.868 E.12767
G1 X205.23 Y19.783 E.01341
G1 X205.23 Y23.94 E.13034
G1 X204.811 Y23.94 E.01314
G1 X204.811 Y19.807 E.12959
G1 X204.392 Y19.854 E.01322
G1 X204.392 Y23.94 E.12811
G1 X203.973 Y23.94 E.01314
G1 X203.973 Y19.901 E.12664
G1 X203.554 Y19.848 E.01324
G1 X203.554 Y23.94 E.1283
G1 X203.135 Y23.94 E.01314
G1 X203.135 Y19.911 E.12633
G1 X202.716 Y19.967 E.01325
G1 X202.716 Y23.94 E.12457
G1 X202.297 Y23.94 E.01314
G1 X202.297 Y19.895 E.12683
G1 X201.878 Y19.876 E.01315
G1 X201.878 Y23.94 E.12742
G1 X201.459 Y23.94 E.01314
G1 X201.459 Y19.94 E.12542
G1 X201.041 Y20.004 E.01326
G1 X201.041 Y23.94 E.12341
G1 X200.622 Y23.94 E.01314
G1 X200.622 Y20.198 E.11733
G1 X200.203 Y20.416 E.01481
G1 X200.203 Y23.94 E.11049
G1 X199.784 Y23.94 E.01314
M73 P0 R55
G1 X199.784 Y20.758 E.09977
G1 X199.365 Y21.169 E.0184
G1 X199.365 Y23.94 E.08688
G1 X198.946 Y23.94 E.01314
G1 X198.946 Y21.56 E.07462
M204 S1000
;WIPE_START
G1 F8640
G1 X198.946 Y23.94 E-.54955
G1 X199.365 Y23.94 E-.09675
G1 X199.365 Y23.274 E-.1537
;WIPE_END
G1 Z.6 F720
G1 X164.762 Y19.545 F10800
G1 Z.2 F720
G1 E.8 F2100
M204 S800
G1 F1200
G1 X165.597 Y19.785 E.02724
G1 X166.67 Y20.59 E.04206
G1 X167.381 Y21.75 E.04266
G1 X167.614 Y23.093 E.04274
G1 X167.365 Y24.28 E.03803
G1 X157.632 Y24.28 E.30517
G1 X157.455 Y23.807 E.01583
G1 X157.399 Y22.608 E.03763
G1 X157.655 Y21.736 E.02849
G1 X158.071 Y20.982 E.027
G1 X158.85 Y20.217 E.03423
G1 X159.869 Y19.686 E.03603
G1 X161.046 Y19.508 E.03732
G1 X161.743 Y19.628 E.02218
G1 X162.571 Y19.502 E.02626
G1 X162.899 Y19.567 E.01048
G1 X164.174 Y19.425 E.04022
G1 X164.707 Y19.534 E.01706
M204 S1000
G1 X164.707 Y19.534 F10800
G1 X167.103 Y24.11
M204 S800
G1 F1200
G1 X167.103 Y22.136 E.06189
G1 X167.058 Y21.872 E.0084
G1 X166.684 Y21.264 E.02238
G1 X166.684 Y23.94 E.0839
G1 X166.265 Y23.94 E.01314
G1 X166.265 Y20.711 E.10124
G1 X165.846 Y20.397 E.01642
G1 X165.846 Y23.94 E.11109
G1 X165.427 Y23.94 E.01314
G1 X165.427 Y20.089 E.12075
G1 X165.008 Y19.969 E.01367
G1 X165.008 Y23.94 E.12451
G1 X164.59 Y23.94 E.01311
G1 X164.59 Y19.856 E.12805
G1 X164.171 Y19.77 E.01341
G1 X164.171 Y23.94 E.13075
G1 X163.752 Y23.94 E.01314
G1 X163.752 Y19.813 E.1294
G1 X163.333 Y19.86 E.01322
G1 X163.333 Y23.94 E.12793
G1 X162.914 Y23.94 E.01314
G1 X162.914 Y19.907 E.12645
G1 X162.495 Y19.857 E.01323
G1 X162.495 Y23.94 E.12802
G1 X162.076 Y23.94 E.01314
G1 X162.076 Y19.92 E.12604
G1 X161.657 Y19.957 E.01319
G1 X161.657 Y23.94 E.12488
G1 X161.238 Y23.94 E.01314
G1 X161.238 Y19.885 E.12714
G1 X160.819 Y19.885 E.01314
G1 X160.819 Y23.94 E.12714
G1 X160.4 Y23.94 E.01314
G1 X160.4 Y19.949 E.12514
G1 X159.981 Y20.013 E.01329
M73 Q1 S56
G1 X159.981 Y23.94 E.12313
G1 X159.562 Y23.94 E.01314
G1 X159.562 Y20.229 E.11636
G1 X159.143 Y20.447 E.01481
M73 P1 R55
G1 X159.143 Y23.94 E.10952
G1 X158.724 Y23.94 E.01314
G1 X158.724 Y20.816 E.09795
G1 X158.305 Y21.26 E.01914
G1 X158.305 Y23.94 E.08403
G1 X157.886 Y23.94 E.01314
G1 X157.886 Y21.668 E.07124
M204 S1000
;WIPE_START
G1 F8640
G1 X157.886 Y23.94 E-.52461
G1 X158.305 Y23.94 E-.09675
G1 X158.305 Y23.166 E-.17864
;WIPE_END
G1 Z.6 F720
G1 X158.881 Y29.77 F10800
G1 Z.2 F720
G1 E.8 F2100
M204 S800
;TYPE:External perimeter
;WIDTH:0.419999
G1 F1200
G1 X159.064 Y30.306 E.01776
G1 X159.073 Y30.935 E.01972
G1 X158.888 Y31.535 E.01969
G1 X158.526 Y32.049 E.01971
G1 X158.023 Y32.426 E.01971
G1 X157.428 Y32.629 E.01971
G1 X156.8 Y32.638 E.01969
G1 X156.199 Y32.453 E.01972
G1 X155.685 Y32.091 E.01971
G1 X155.309 Y31.588 E.01969
;WIDTH:0.467816
G1 X155.184 Y31.298 E.01116
;WIDTH:0.515633
G1 X155.06 Y31.008 E.0124
;WIDTH:0.536044
G1 X155.042 Y30.977 E.00147
G1 X155.04 Y30.365 E.02509
;WIDTH:0.532336
G1 X155.121 Y30.165 E.00878
;WIDTH:0.494891
G1 X155.201 Y29.964 E.00813
;WIDTH:0.457445
G1 X155.282 Y29.764 E.00744
;WIDTH:0.419999
G1 X155.477 Y29.445 E.01172
G1 X155.88 Y29.042 E.01787
G1 X156.436 Y28.749 E.01971
G1 X157.031 Y28.643 E.01895
G1 X157.428 Y28.671 E.01248
G1 X157.97 Y28.847 E.01787
G1 X158.484 Y29.209 E.01971
G1 X158.861 Y29.712 E.01971
M204 S1000
;WIPE_START
G1 F8640
G1 X158.881 Y29.77 E-.01417
G1 X159.064 Y30.306 E-.13078
G1 X159.073 Y30.935 E-.14525
G1 X158.888 Y31.535 E-.14498
G1 X158.526 Y32.049 E-.14516
G1 X158.023 Y32.426 E-.14515
G1 X157.718 Y32.53 E-.07451
;WIPE_END
G1 Z.6 F720
G1 X145.395 Y76.983 F10800
G1 Z.2 F720
G1 E.8 F2100
M204 S800
;TYPE:Perimeter
G1 F1200
G1 X145.247 Y77.059 E.00522
G1 X144.854 Y77.186 E.01295
G1 X144.291 Y77.275 E.01787
G1 X143.878 Y77.275 E.01295
G1 X143.315 Y77.186 E.01787
G1 X142.923 Y77.059 E.01292
G1 X142.415 Y76.8 E.01788
G1 X142.08 Y76.557 E.01298
G1 X141.677 Y76.154 E.01787
G1 X141.435 Y75.82 E.01293
G1 X141.176 Y75.312 E.01788
G1 X141.048 Y74.919 E.01296
G1 X140.959 Y74.356 E.01787
G1 X140.959 Y73.943 E.01295
G1 X141.048 Y73.38 E.01787
G1 X141.176 Y72.988 E.01293
G1 X141.435 Y72.48 E.01788
G1 X141.677 Y72.146 E.01293
G1 X142.08 Y71.742 E.01789
G1 X142.415 Y71.5 E.01296
G1 X142.922 Y71.241 E.01785
G1 X143.311 Y71.114 E.01283
G1 X143.85 Y71.027 E.01712
G1 X144.457 Y71.033 E.01903
G1 X144.956 Y71.133 E.01596
G1 X145.247 Y71.241 E.00973
G1 X145.755 Y71.5 E.01788
G1 X146.089 Y71.742 E.01293
G1 X146.492 Y72.145 E.01787
G1 X146.735 Y72.48 E.01298
G1 X146.994 Y72.988 E.01788
G1 X147.121 Y73.38 E.01292
G1 X147.21 Y73.943 E.01787
G1 X147.21 Y74.356 E.01295
G1 X147.121 Y74.919 E.01787
G1 X146.994 Y75.312 E.01295
G1 X146.735 Y75.82 E.01788
G1 X146.492 Y76.154 E.01295
G1 X146.089 Y76.557 E.01787
G1 X145.755 Y76.8 E.01295
G1 X145.448 Y76.956 E.0108
M204 S1000
G1 X145.448 Y76.956 F10800
G1 X145.25 Y76.634
M204 S800
G1 F1200
G1 X145.076 Y76.723 E.00613
G1 X144.795 Y76.814 E.00926
G1 X144.232 Y76.903 E.01787
G1 X143.937 Y76.903 E.00925
G1 X143.374 Y76.814 E.01787
G1 X143.094 Y76.723 E.00923
G1 X142.586 Y76.464 E.01788
G1 X142.146 Y76.089 E.01813
G1 X141.771 Y75.649 E.01813
G1 X141.512 Y75.141 E.01788
G1 X141.421 Y74.86 E.00926
G1 X141.332 Y74.297 E.01787
G1 X141.331 Y74.002 E.00925
G1 X141.421 Y73.439 E.01788
G1 X141.512 Y73.159 E.00923
G1 X141.771 Y72.651 E.01788
G1 X141.944 Y72.412 E.00925
G1 X142.347 Y72.009 E.01787
G1 X142.586 Y71.836 E.00925
G1 X143.094 Y71.577 E.01788
G1 X143.371 Y71.486 E.00914
G1 X143.911 Y71.399 E.01715
G1 X144.432 Y71.409 E.01634
G1 X144.947 Y71.523 E.01654
G1 X145.584 Y71.836 E.02225
G1 X145.822 Y72.009 E.00923
G1 X146.225 Y72.412 E.01787
G1 X146.399 Y72.651 E.00927
G1 X146.658 Y73.159 E.01788
G1 X146.749 Y73.439 E.00923
G1 X146.838 Y74.002 E.01787
G1 X146.838 Y74.297 E.00925
G1 X146.749 Y74.86 E.01787
G1 X146.658 Y75.141 E.00926
G1 X146.399 Y75.649 E.01788
G1 X146.225 Y75.887 E.00924
G1 X145.822 Y76.29 E.01787
G1 X145.584 Y76.464 E.00924
G1 X145.303 Y76.607 E.00989
M204 S1000
G1 X145.303 Y76.607 F10800
G1 X145.102 Y76.277
M204 S800
G1 F1200
G1 X144.905 Y76.387 E.00707
G1 X144.736 Y76.441 E.00556
G1 X144.173 Y76.531 E.01788
G1 X143.433 Y76.441 E.02337
G1 X142.757 Y76.128 E.02336
G1 X142.211 Y75.621 E.02336
G1 X141.848 Y74.97 E.02337
G1 X141.704 Y74.238 E.02339
G1 X141.793 Y73.498 E.02337
G1 X142.107 Y72.822 E.02337
G1 X142.614 Y72.276 E.02336
G1 X143.265 Y71.913 E.02337
G1 X143.971 Y71.771 E.02258
G1 X144.502 Y71.8 E.01667
G1 X144.905 Y71.913 E.01312
G1 X145.413 Y72.172 E.01788
G1 X145.959 Y72.679 E.02336
G1 X146.322 Y73.33 E.02337
G1 X146.466 Y74.061 E.02336
G1 X146.376 Y74.801 E.02337
G1 X146.063 Y75.478 E.02339
G1 X145.556 Y76.024 E.02336
G1 X145.155 Y76.247 E.01439
M204 S1000
G1 X145.155 Y76.247 F10800
G1 X144.956 Y75.927
M204 S800
;TYPE:External perimeter
G1 F1200
G1 X144.677 Y76.069 E.00982
G1 X144.114 Y76.158 E.01787
G1 X143.492 Y76.069 E.0197
G1 X142.928 Y75.792 E.0197
G1 X142.477 Y75.354 E.01971
G1 X142.184 Y74.799 E.01968
G1 X142.076 Y74.179 E.01973
G1 X142.166 Y73.557 E.01971
G1 X142.443 Y72.993 E.0197
G1 X142.88 Y72.542 E.01969
G1 X143.436 Y72.249 E.01971
G1 X144.031 Y72.143 E.01895
G1 X144.414 Y72.167 E.01203
G1 X144.733 Y72.249 E.01033
G1 X145.241 Y72.508 E.01788
G1 X145.692 Y72.945 E.01969
G1 X145.986 Y73.501 E.01972
G1 X146.093 Y74.12 E.0197
G1 X146.004 Y74.742 E.0197
G1 X145.727 Y75.306 E.0197
G1 X145.289 Y75.757 E.01971
G1 X145.01 Y75.899 E.00982
M204 S1000
;WIPE_START
G1 F8640
G1 X144.956 Y75.927 E-.01405
G1 X144.677 Y76.069 E-.07229
G1 X144.114 Y76.158 E-.13161
G1 X143.492 Y76.069 E-.14508
G1 X142.928 Y75.792 E-.14509
G1 X142.477 Y75.354 E-.14517
G1 X142.184 Y74.799 E-.14491
G1 X142.183 Y74.791 E-.0018
;WIPE_END
G1 Z.6 F720
G1 X213.955 Y77.256 F10800
G1 Z.2 F720
G1 E.8 F2100
M204 S800
;TYPE:Perimeter
G1 F1200
G1 X213.87 Y77.269 E.0027
G1 X213.3 Y77.269 E.01787
G1 X212.892 Y77.205 E.01295
G1 X212.35 Y77.028 E.01788
G1 X211.982 Y76.841 E.01294
G1 X211.521 Y76.506 E.01787
G1 X211.107 Y76.078 E.01867
G1 X210.676 Y75.312 E.02756
G1 X210.548 Y74.919 E.01296
G1 X210.459 Y74.356 E.01787
G1 X210.459 Y73.943 E.01295
G1 X210.548 Y73.38 E.01787
G1 X210.676 Y72.988 E.01293
G1 X210.935 Y72.48 E.01788
G1 X211.177 Y72.146 E.01293
G1 X211.58 Y71.742 E.01789
G1 X211.915 Y71.5 E.01296
G1 X212.422 Y71.241 E.01785
G1 X212.811 Y71.114 E.01283
G1 X213.35 Y71.027 E.01712
G1 X213.957 Y71.033 E.01903
G1 X214.277 Y71.095 E.01022
G1 X214.82 Y71.271 E.0179
G1 X215.188 Y71.458 E.01294
G1 X215.649 Y71.794 E.01789
G1 X215.941 Y72.086 E.01295
G1 X216.276 Y72.547 E.01787
G1 X216.463 Y72.915 E.01294
G1 X216.64 Y73.457 E.01788
