; generated by PrusaSlicer 2.8.0+win64 on 2024-12-26 at 15:38:54 UTC


;
;
; 

; external perimeters extrusion width = 0.60mm
; perimeters extrusion width = 0.50mm
; infill extrusion width = 0.50mm
; solid infill extrusion width = 0.50mm
; top infill extrusion width = 0.45mm
; support material extrusion width = 0.38mm
; first layer extrusion width = 0.42mm

M73 P0 R54
M73 Q0 S54
M201 X1000 Y1000 Z200 E5000 ; sets maximum accelerations, mm/sec^2
M203 X200 Y200 Z12 E120 ; sets maximum feedrates, mm / sec
M204 S1250 T1250 ; sets acceleration (S) and retract acceleration (R), mm/sec^2
M205 X8.00 Y8.00 Z0.40 E4.50 ; sets the jerk limits, mm/sec
M205 S0 T0 ; sets the minimum extruding and travel feed rate, mm/sec

; printing object temp_box_base.stl id:0 copy 0
; stop printing object temp_box_base.stl id:0 copy 0

;TYPE:Custom
M862.3 P "MK3S" ; printer model check
M862.1 P0.4 ; nozzle diameter check
M115 U3.13.3 ; tell printer latest fw version
G90 ; use absolute coordinates
M83 ; extruder relative mode
M104 S205 ; set extruder temp
M140 S67 ; set bed temp
M190 S67 ; wait for bed temp
M109 S205 ; wait for extruder temp
G28 W ; home all without mesh bed level
G80 X138.285 Y24.8497 W81.1 H55.1 ; mesh bed levelling

G1 Z0.2 F720
G1 Y-3 F1000 ; go outside print area
G92 E0
G1 X60 E9 F1000 ; intro line
G1 X100 E12.5 F1000 ; intro line

G92 E0
M221 S95

; Don't change E values below. Excessive value can damage the printer.

M907 E538 ; set extruder motor current
G21 ; set units to millimeters
G90 ; use absolute coordinates
M83 ; use relative distances for extrusion
M900 K0.05 ; Filament gcode LA 1.5
M900 K30 ; Filament gcode LA 1.0
M107
;LAYER_CHANGE
;Z:0.2
;HEIGHT:0.2
G1 E-.8 F2100
G1 Z.6 F720
; printing object temp_box_base.stl id:0 copy 0
G1 X156.745 Y32.605 F10800
G1 Z.2 F720
G1 E.8 F2100
M204 S800
;TYPE:External perimeter
;WIDTH:0.419999
G1 F1200
G1 X156.492 Y32.569 E.00801
G1 X155.928 Y32.292 E.0197
G1 X155.477 Y31.854 E.01971
;WIDTH:0.464501
G1 X155.311 Y31.586 E.01105
;WIDTH:0.509002
G1 X155.144 Y31.319 E.0122
;WIDTH:0.538974
G1 X155.118 Y31.286 E.00173
;WIDTH:0.568946
G1 X155.092 Y31.254 E.0018
G1 X155.025 Y30.687 E.02497
G1 X155.092 Y30.046 E.02819
G1 X155.209 Y29.861 E.00957
;WIDTH:0.519297
G1 X155.326 Y29.677 E.00864
;WIDTH:0.469648
G1 X155.443 Y29.493 E.00774
;WIDTH:0.419999
G1 X155.88 Y29.042 E.01969
G1 X156.436 Y28.749 E.01971
G1 X157.031 Y28.643 E.01895
G1 X157.428 Y28.671 E.01248
G1 X157.97 Y28.847 E.01787
G1 X158.484 Y29.209 E.01971
G1 X158.727 Y29.493 E.01172
G1 X158.986 Y30.001 E.01788
G1 X159.093 Y30.62 E.0197
G1 X159.004 Y31.242 E.0197
G1 X158.727 Y31.806 E.0197
G1 X158.289 Y32.257 E.01971
G1 X157.733 Y32.551 E.01972
G1 X157.114 Y32.658 E.0197
G1 X156.804 Y32.614 E.00982
M204 S1000
;WIPE_START
G1 F8640
G1 X156.745 Y32.605 E-.01378
G1 X156.492 Y32.569 E-.05901
G1 X155.928 Y32.292 E-.14509
G1 X155.477 Y31.854 E-.14517
G1 X155.311 Y31.586 E-.07279
G1 X155.144 Y31.319 E-.07272
G1 X155.118 Y31.286 E-.0097
G1 X155.092 Y31.254 E-.00952
G1 X155.025 Y30.687 E-.13183
G1 X155.088 Y30.082 E-.14039
;WIPE_END
G1 Z.6 F720
G1 X143.965 Y77.275 F10800
G1 Z.2 F720
G1 E.8 F2100
M204 S800
;TYPE:Perimeter
G1 F1200
G1 X143.878 Y77.275 E.00273
G1 X143.315 Y77.186 E.01787
G1 X142.923 Y77.059 E.01292
G1 X142.415 Y76.8 E.01788
G1 X142.08 Y76.557 E.01298
G1 X141.677 Y76.154 E.01787
G1 X141.435 Y75.82 E.01293
G1 X141.176 Y75.312 E.01788
G1 X141.048 Y74.919 E.01296
G1 X140.959 Y74.356 E.01787
G1 X140.959 Y73.943 E.01295
G1 X141.048 Y73.38 E.01787
G1 X141.176 Y72.988 E.01293
G1 X141.435 Y72.48 E.01788
G1 X141.677 Y72.145 E.01296
G1 X142.08 Y71.742 E.01787
G1 X142.415 Y71.5 E.01296
G1 X142.922 Y71.241 E.01785
G1 X143.311 Y71.114 E.01283
G1 X143.85 Y71.027 E.01712
G1 X144.457 Y71.033 E.01903
G1 X144.678 Y71.067 E.00701
G1 X145.163 Y71.202 E.01578
G1 X145.755 Y71.5 E.02078
G1 X146.089 Y71.742 E.01293
G1 X146.492 Y72.145 E.01787
G1 X146.735 Y72.48 E.01298
G1 X146.994 Y72.988 E.01788
G1 X147.121 Y73.38 E.01292
G1 X147.21 Y73.943 E.01787
G1 X147.21 Y74.356 E.01295
G1 X147.121 Y74.919 E.01787
G1 X146.994 Y75.312 E.01295
G1 X146.735 Y75.82 E.01788
G1 X146.492 Y76.154 E.01295
G1 X146.089 Y76.557 E.01787
G1 X145.755 Y76.8 E.01295
G1 X145.247 Y77.059 E.01788
G1 X144.854 Y77.186 E.01295
G1 X144.291 Y77.275 E.01787
G1 X144.025 Y77.275 E.00834
M204 S1000
G1 X144.025 Y77.275 F10800
G1 X143.994 Y76.903
M204 S800
G1 F1200
G1 X143.937 Y76.903 E.00179
G1 X143.374 Y76.814 E.01787
G1 X143.094 Y76.723 E.00923
G1 X142.586 Y76.464 E.01788
G1 X142.146 Y76.089 E.01813
G1 X141.771 Y75.649 E.01813
G1 X141.512 Y75.141 E.01788
G1 X141.421 Y74.86 E.00926
G1 X141.332 Y74.297 E.01787
G1 X141.331 Y74.002 E.00925
G1 X141.421 Y73.439 E.01788
G1 X141.512 Y73.159 E.00923
G1 X141.771 Y72.651 E.01788
G1 X141.944 Y72.412 E.00925
G1 X142.347 Y72.009 E.01787
G1 X142.586 Y71.836 E.00925
G1 X143.094 Y71.577 E.01788
G1 X143.371 Y71.486 E.00914
G1 X143.911 Y71.399 E.01715
G1 X144.432 Y71.409 E.01634
G1 X144.59 Y71.433 E.00501
G1 X145.076 Y71.577 E.01589
G1 X145.584 Y71.836 E.01788
G1 X145.822 Y72.009 E.00923
G1 X146.225 Y72.412 E.01787
G1 X146.399 Y72.651 E.00927
G1 X146.658 Y73.159 E.01788
G1 X146.749 Y73.439 E.00923
G1 X146.838 Y74.002 E.01787
G1 X146.838 Y74.297 E.00925
G1 X146.749 Y74.86 E.01787
G1 X146.658 Y75.141 E.00926
G1 X146.399 Y75.649 E.01788
G1 X146.225 Y75.887 E.00924
G1 X145.822 Y76.29 E.01787
G1 X145.584 Y76.464 E.00924
G1 X145.076 Y76.723 E.01788
G1 X144.795 Y76.814 E.00926
G1 X144.232 Y76.903 E.01787
G1 X144.054 Y76.903 E.00558
M204 S1000
G1 X144.054 Y76.903 F10800
G1 X144.025 Y76.513
M204 S800
G1 F1200
G1 X143.433 Y76.441 E.0187
G1 X142.757 Y76.128 E.02336
G1 X142.211 Y75.621 E.02336
G1 X141.848 Y74.97 E.02337
G1 X141.704 Y74.238 E.02339
G1 X141.793 Y73.498 E.02337
G1 X142.107 Y72.822 E.02337
G1 X142.614 Y72.276 E.02336
G1 X143.265 Y71.913 E.02337
G1 X143.971 Y71.771 E.02258
G1 X144.502 Y71.8 E.01667
G1 X144.905 Y71.913 E.01312
G1 X145.413 Y72.172 E.01788
G1 X145.959 Y72.679 E.02336
G1 X146.322 Y73.33 E.02337
G1 X146.466 Y74.061 E.02336
G1 X146.376 Y74.801 E.02337
G1 X146.063 Y75.478 E.02339
G1 X145.556 Y76.024 E.02336
G1 X144.905 Y76.387 E.02337
G1 X144.173 Y76.531 E.02339
G1 X144.084 Y76.52 E.00281
M204 S1000
G1 X144.084 Y76.52 F10800
G1 X144.053 Y76.149
M204 S800
;TYPE:External perimeter
G1 F1200
G1 X143.492 Y76.069 E.01777
G1 X142.928 Y75.792 E.0197
G1 X142.477 Y75.354 E.01971
G1 X142.184 Y74.799 E.01968
G1 X142.076 Y74.179 E.01973
G1 X142.166 Y73.557 E.01971
G1 X142.443 Y72.993 E.0197
G1 X142.88 Y72.542 E.01969
G1 X143.436 Y72.249 E.01971
G1 X144.031 Y72.143 E.01895
G1 X144.414 Y72.167 E.01203
G1 X144.733 Y72.249 E.01033
G1 X145.241 Y72.508 E.01788
G1 X145.692 Y72.945 E.01969
G1 X145.986 Y73.501 E.01972
G1 X146.093 Y74.12 E.0197
G1 X146.004 Y74.742 E.0197
G1 X145.727 Y75.306 E.0197
G1 X145.289 Y75.757 E.01971
G1 X144.733 Y76.051 E.01972
G1 X144.114 Y76.158 E.0197
M204 S1000
;WIPE_START
G1 F8640
G1 X144.053 Y76.149 E-.01424
G1 X143.492 Y76.069 E-.13085
G1 X142.928 Y75.792 E-.14509
G1 X142.477 Y75.354 E-.14517
G1 X142.184 Y74.799 E-.14491
G1 X142.076 Y74.179 E-.14532
G1 X142.122 Y73.86 E-.07442
;WIPE_END
G1 Z.6 F720
G1 X213.466 Y77.269 F10800
G1 Z.2 F720
G1 E.8 F2100
M204 S800
;TYPE:Perimeter
G1 F1200
G1 X213.3 Y77.269 E.0052
G1 X212.892 Y77.205 E.01295
G1 X212.35 Y77.028 E.01788
G1 X211.982 Y76.841 E.01294
G1 X211.521 Y76.506 E.01787
G1 X211.107 Y76.078 E.01867
G1 X210.676 Y75.312 E.02756
G1 X210.548 Y74.919 E.01296
G1 X210.459 Y74.356 E.01787
G1 X210.459 Y73.943 E.01295
G1 X210.548 Y73.38 E.01787
G1 X210.676 Y72.988 E.01293
G1 X210.935 Y72.48 E.01788
G1 X211.177 Y72.146 E.01293
G1 X211.58 Y71.742 E.01789
G1 X211.915 Y71.5 E.01296
G1 X212.422 Y71.241 E.01785
G1 X212.811 Y71.114 E.01283
G1 X213.35 Y71.027 E.01712
G1 X213.957 Y71.033 E.01903
G1 X214.277 Y71.095 E.01022
G1 X214.82 Y71.271 E.0179
G1 X215.188 Y71.458 E.01294
G1 X215.649 Y71.794 E.01789
G1 X215.941 Y72.086 E.01295
G1 X216.276 Y72.547 E.01787
G1 X216.463 Y72.915 E.01294
G1 X216.64 Y73.457 E.01788
G1 X216.704 Y73.865 E.01295
G1 X216.704 Y74.435 E.01787
G1 X216.64 Y74.843 E.01295
G1 X216.463 Y75.385 E.01788
G1 X216.276 Y75.753 E.01294
G1 X215.941 Y76.214 E.01787
G1 X215.649 Y76.506 E.01295
G1 X215.188 Y76.841 E.01787
G1 X214.82 Y77.028 E.01294
G1 X214.278 Y77.205 E.01788
G1 X213.87 Y77.269 E.01295
G1 X213.526 Y77.269 E.01079
M204 S1000
G1 X213.526 Y77.269 F10800
G1 X213.495 Y76.892
M204 S800
G1 F1200
G1 X213.3 Y76.892 E.00611
G1 X213.008 Y76.846 E.00927
G1 X212.466 Y76.67 E.01787
G1 X212.203 Y76.536 E.00925
G1 X211.742 Y76.201 E.01787
G1 X211.394 Y75.833 E.01588
G1 X211.012 Y75.141 E.02478
G1 X210.921 Y74.86 E.00926
G1 X210.831 Y74.297 E.01788
G1 X210.831 Y74.002 E.00925
G1 X210.921 Y73.439 E.01788
G1 X211.012 Y73.159 E.00923
G1 X211.271 Y72.651 E.01788
G1 X211.444 Y72.412 E.00925
G1 X211.847 Y72.009 E.01787
G1 X212.086 Y71.836 E.00925
G1 X212.594 Y71.577 E.01788
G1 X212.871 Y71.486 E.00914
G1 X213.411 Y71.399 E.01715
G1 X213.932 Y71.409 E.01634
G1 X214.703 Y71.63 E.02515
G1 X214.966 Y71.764 E.00925
G1 X215.427 Y72.099 E.01787
G1 X215.636 Y72.307 E.00925
G1 X215.971 Y72.768 E.01787
G1 X216.105 Y73.031 E.00925
G1 X216.281 Y73.573 E.01787
G1 X216.327 Y73.865 E.00927
G1 X216.327 Y74.435 E.01787
G1 X216.281 Y74.726 E.00924
G1 X216.105 Y75.268 E.01787
G1 X215.971 Y75.531 E.00925
G1 X215.636 Y75.992 E.01787
G1 X215.427 Y76.201 E.00927
G1 X214.966 Y76.536 E.01787
G1 X214.703 Y76.67 E.00925
G1 X214.161 Y76.846 E.01787
G1 X213.87 Y76.892 E.00924
G1 X213.555 Y76.892 E.00988
M204 S1000
G1 X213.555 Y76.892 F10800
G1 X213.526 Y76.507
M204 S800
G1 F1200
G1 X213.3 Y76.515 E.00709
G1 X212.583 Y76.311 E.02337
G1 X211.964 Y75.896 E.02337
G1 X211.607 Y75.478 E.01724
G1 X211.348 Y74.97 E.01788
G1 X211.204 Y74.238 E.02339
G1 X211.204 Y74.061 E.00555
G1 X211.293 Y73.498 E.01787
G1 X211.607 Y72.822 E.02337
G1 X212.114 Y72.276 E.02336
G1 X212.765 Y71.913 E.02337
G1 X213.471 Y71.771 E.02258
G1 X213.907 Y71.786 E.01368
G1 X214.587 Y71.988 E.02224
G1 X215.206 Y72.404 E.02338
G1 X215.666 Y72.99 E.02336
G1 X215.922 Y73.69 E.02337
G1 X215.95 Y74.435 E.02338
G1 X215.746 Y75.152 E.02337
G1 X215.331 Y75.771 E.02337
G1 X214.744 Y76.231 E.02338
G1 X214.045 Y76.487 E.02334
G1 X213.586 Y76.504 E.0144
M204 S1000
G1 X213.586 Y76.504 F10800
G1 X213.555 Y76.134
M204 S800
;TYPE:External perimeter
G1 F1200
G1 X213.3 Y76.138 E.008
G1 X212.699 Y75.953 E.01972
G1 X212.186 Y75.591 E.01969
G1 X211.943 Y75.306 E.01174
G1 X211.684 Y74.798 E.01788
G1 X211.576 Y74.12 E.02153
G1 X211.666 Y73.557 E.01788
G1 X211.943 Y72.993 E.0197
G1 X212.38 Y72.542 E.01969
G1 X212.936 Y72.249 E.01971
G1 X213.531 Y72.143 E.01895
G1 X213.928 Y72.171 E.01248
G1 X214.47 Y72.347 E.01787
G1 X214.984 Y72.709 E.01971
G1 X215.361 Y73.212 E.01971
G1 X215.564 Y73.806 E.01968
G1 X215.573 Y74.435 E.01972
G1 X215.388 Y75.035 E.01969
G1 X215.026 Y75.549 E.01971
G1 X214.523 Y75.926 E.01971
G1 X213.928 Y76.129 E.01971
G1 X213.615 Y76.133 E.00981
M204 S1000
;WIPE_START
G1 F8640
G1 X213.555 Y76.134 E-.01386
G1 X213.3 Y76.138 E-.05889
G1 X212.699 Y75.953 E-.1452
G1 X212.186 Y75.591 E-.14498
G1 X211.943 Y75.306 E-.08648
G1 X211.684 Y74.798 E-.13166
G1 X211.576 Y74.12 E-.15853
G1 X211.617 Y73.862 E-.0604
;WIPE_END
G1 Z.6 F720
G1 X216.71 Y30.769 F10800
G1 Z.2 F720
G1 E.8 F2100
M204 S800
;TYPE:Perimeter
G1 F1200
G1 X216.71 Y30.856 E.00273
G1 X216.621 Y31.419 E.01787
G1 X216.494 Y31.812 E.01295
G1 X216.235 Y32.32 E.01788
G1 X215.992 Y32.654 E.01295
G1 X215.589 Y33.057 E.01787
G1 X215.255 Y33.3 E.01295
G1 X214.747 Y33.559 E.01788
G1 X214.354 Y33.686 E.01295
G1 X213.791 Y33.775 E.01787
G1 X213.378 Y33.775 E.01295
G1 X212.815 Y33.686 E.01787
G1 X212.423 Y33.559 E.01292
G1 X211.915 Y33.3 E.01788
G1 X211.581 Y33.057 E.01295
G1 X211.177 Y32.654 E.01789
G1 X210.935 Y32.32 E.01293
G1 X210.676 Y31.812 E.01788
G1 X210.548 Y31.419 E.01296
G1 X210.459 Y30.856 E.01787
G1 X210.469 Y30.261 E.01866
G1 X210.706 Y29.415 E.02755
G1 X210.985 Y28.889 E.01867
G1 X211.58 Y28.242 E.02756
G1 X211.915 Y28 E.01296
G1 X212.422 Y27.741 E.01785
G1 X212.811 Y27.614 E.01283
G1 X213.35 Y27.527 E.01712
G1 X213.957 Y27.533 E.01903
G1 X214.277 Y27.595 E.01022
G1 X214.82 Y27.771 E.0179
G1 X215.188 Y27.958 E.01294
G1 X215.649 Y28.293 E.01787
G1 X216.062 Y28.722 E.01867
G1 X216.494 Y29.487 E.02755
G1 X216.621 Y29.88 E.01295
G1 X216.71 Y30.443 E.01787
G1 X216.71 Y30.709 E.00834
M204 S1000
G1 X216.71 Y30.709 F10800
G1 X216.338 Y30.74
M204 S800
G1 F1200
G1 X216.338 Y30.797 E.00179
G1 X216.249 Y31.36 E.01787
G1 X216.158 Y31.641 E.00926
G1 X215.899 Y32.149 E.01788
G1 X215.725 Y32.387 E.00924
G1 X215.322 Y32.79 E.01787
G1 X215.084 Y32.964 E.00924
G1 X214.576 Y33.223 E.01788
G1 X214.295 Y33.314 E.00926
G1 X213.732 Y33.403 E.01787
G1 X213.437 Y33.403 E.00925
G1 X212.874 Y33.314 E.01787
G1 X212.594 Y33.223 E.00923
G1 X212.086 Y32.964 E.01788
G1 X211.847 Y32.791 E.00925
G1 X211.444 Y32.387 E.01789
G1 X211.271 Y32.149 E.00923
G1 X211.012 Y31.641 E.01788
G1 X210.921 Y31.36 E.00926
G1 X210.831 Y30.797 E.01788
G1 X210.845 Y30.291 E.01587
G1 X211.065 Y29.531 E.02481
G1 X211.307 Y29.086 E.01588
G1 X211.847 Y28.509 E.02478
G1 X212.086 Y28.336 E.00925
G1 X212.594 Y28.077 E.01788
G1 X212.871 Y27.986 E.00914
G1 X213.411 Y27.899 E.01715
G1 X213.932 Y27.909 E.01634
G1 X214.161 Y27.953 E.00731
G1 X214.703 Y28.13 E.01788
G1 X214.966 Y28.264 E.00925
G1 X215.427 Y28.599 E.01787
G1 X215.776 Y28.966 E.01588
G1 X216.158 Y29.659 E.02481
G1 X216.249 Y29.939 E.00923
G1 X216.338 Y30.502 E.01787
G1 X216.338 Y30.68 E.00558
M204 S1000
G1 X216.338 Y30.68 F10800
G1 X215.948 Y30.71
M204 S800
G1 F1200
G1 X215.876 Y31.301 E.01867
G1 X215.563 Y31.978 E.02339
G1 X215.056 Y32.524 E.02336
G1 X214.405 Y32.887 E.02337
G1 X213.673 Y33.031 E.02339
G1 X212.933 Y32.941 E.02337
G1 X212.257 Y32.628 E.02336
G1 X211.711 Y32.121 E.02336
G1 X211.348 Y31.47 E.02337
G1 X211.204 Y30.738 E.02339
G1 X211.247 Y30.19 E.01723
G1 X211.423 Y29.648 E.01787
G1 X211.711 Y29.179 E.01726
G1 X212.114 Y28.776 E.01787
G1 X212.765 Y28.413 E.02337
G1 X213.471 Y28.271 E.02258
G1 X213.907 Y28.286 E.01368
G1 X214.044 Y28.312 E.00437
G1 X214.587 Y28.488 E.0179
G1 X215.206 Y28.904 E.02338
G1 X215.563 Y29.322 E.01724
G1 X215.822 Y29.83 E.01788
G1 X215.966 Y30.561 E.02336
G1 X215.955 Y30.65 E.00281
M204 S1000
G1 X215.955 Y30.65 F10800
G1 X215.584 Y30.681
M204 S800
;TYPE:External perimeter
G1 F1200
G1 X215.504 Y31.242 E.01777
G1 X215.227 Y31.806 E.0197
G1 X214.789 Y32.257 E.01971
G1 X214.233 Y32.551 E.01972
G1 X213.614 Y32.658 E.0197
G1 X212.992 Y32.569 E.0197
G1 X212.428 Y32.292 E.0197
G1 X211.977 Y31.854 E.01971
G1 X211.684 Y31.298 E.01971
G1 X211.576 Y30.679 E.0197
G1 X211.606 Y30.306 E.01173
G1 X211.782 Y29.764 E.01787
G1 X211.977 Y29.445 E.01172
G1 X212.38 Y29.042 E.01787
G1 X212.936 Y28.749 E.01971
G1 X213.531 Y28.643 E.01895
G1 X213.928 Y28.671 E.01248
G1 X214.47 Y28.847 E.01787
G1 X214.984 Y29.209 E.01971
G1 X215.227 Y29.493 E.01172
G1 X215.486 Y30.001 E.01788
G1 X215.593 Y30.62 E.0197
M204 S1000
;WIPE_START
G1 F8640
G1 X215.584 Y30.681 E-.01424
G1 X215.504 Y31.242 E-.13085
G1 X215.227 Y31.806 E-.14509
G1 X214.789 Y32.257 E-.14517
G1 X214.233 Y32.551 E-.14523
G1 X213.614 Y32.658 E-.14505
G1 X213.295 Y32.612 E-.07437
;WIPE_END
G1 Z.6 F720
G1 X155.227 Y42.293 F10800
G1 Z.2 F720
G1 E.8 F2100
M204 S800
;TYPE:Perimeter
G1 F1200
G1 X155.371 Y42.151 E.00634
G1 X155.559 Y41.787 E.01285
G1 X155.626 Y41.376 E.01306
G1 X155.626 Y33.408 E.24983
G1 X155.923 Y33.559 E.01045
G1 X156.315 Y33.686 E.01292
G1 X156.878 Y33.775 E.01787
G1 X157.291 Y33.775 E.01295
G1 X157.854 Y33.686 E.01787
G1 X158.247 Y33.559 E.01295
G1 X158.755 Y33.3 E.01788
G1 X159.086 Y33.06 E.01282
G1 X159.492 Y32.654 E.018
G1 X159.735 Y32.32 E.01295
G1 X159.994 Y31.812 E.01788
G1 X160.121 Y31.419 E.01295
G1 X160.21 Y30.856 E.01787
G1 X160.21 Y30.443 E.01295
G1 X160.121 Y29.88 E.01787
G1 X159.994 Y29.488 E.01292
G1 X159.562 Y28.722 E.02757
G1 X159.149 Y28.293 E.01867
G1 X158.688 Y27.958 E.01787
G1 X158.32 Y27.771 E.01294
G1 X157.777 Y27.595 E.0179
G1 X157.457 Y27.533 E.01022
G1 X156.85 Y27.527 E.01903
G1 X156.337 Y27.61 E.01629
