; generated by PrusaSlicer 2.8.0+win64 on 2024-12-26 at 15:31:25 UTC


;
;
; 

; external perimeters extrusion width = 0.45mm
; perimeters extrusion width = 0.45mm
; infill extrusion width = 0.45mm
; solid infill extrusion width = 0.45mm
; top infill extrusion width = 0.40mm
; first layer extrusion width = 0.42mm

; external perimeters extrusion width = 0.45mm
; perimeters extrusion width = 0.45mm
; infill extrusion width = 0.45mm
; solid infill extrusion width = 0.45mm
; top infill extrusion width = 0.40mm
; first layer extrusion width = 0.42mm

; external perimeters extrusion width = 0.45mm
; perimeters extrusion width = 0.45mm
; infill extrusion width = 0.45mm
; solid infill extrusion width = 0.45mm
; top infill extrusion width = 0.40mm
; first layer extrusion width = 0.42mm

; external perimeters extrusion width = 0.45mm
; perimeters extrusion width = 0.45mm
; infill extrusion width = 0.45mm
; solid infill extrusion width = 0.45mm
; top infill extrusion width = 0.40mm
; first layer extrusion width = 0.42mm

M73 P0 R4
M73 Q0 S4
M201 X1000 Y1000 Z200 E5000 ; sets maximum accelerations, mm/sec^2
M203 X200 Y200 Z12 E120 ; sets maximum feedrates, mm / sec
M204 S1250 T1250 ; sets acceleration (S) and retract acceleration (R), mm/sec^2
M205 X8.00 Y8.00 Z0.40 E4.50 ; sets the jerk limits, mm/sec
M205 S0 T0 ; sets the minimum extruding and travel feed rate, mm/sec

; printing object temp_box_button_cap.stl id:1 copy 0
; stop printing object temp_box_button_cap.stl id:1 copy 0
; printing object temp_box_button_cap.stl id:0 copy 0
; stop printing object temp_box_button_cap.stl id:0 copy 0
; printing object temp_box_button_cap.stl id:2 copy 0
; stop printing object temp_box_button_cap.stl id:2 copy 0
; printing object temp_box_button_cap.stl id:3 copy 0
; stop printing object temp_box_button_cap.stl id:3 copy 0

;TYPE:Custom
M862.3 P "MK3S" ; printer model check
M862.1 P0.4 ; nozzle diameter check
M115 U3.13.3 ; tell printer latest fw version
G90 ; use absolute coordinates
M83 ; extruder relative mode
M104 S205 ; set extruder temp
M140 S67 ; set bed temp
M190 S67 ; wait for bed temp
M109 S205 ; wait for extruder temp
G28 W ; home all without mesh bed level
G80 X182.297 Y22.4546 W16.1707 H16.3596 ; mesh bed levelling

G1 Z0.2 F720
G1 Y-3 F1000 ; go outside print area
G92 E0
G1 X60 E9 F1000 ; intro line
G1 X100 E12.5 F1000 ; intro line
M73 P1 R4
M73 Q1 S4

G92 E0
M221 S95

; Don't change E values below. Excessive value can damage the printer.
M907 E430 ; set extruder motor current
G21 ; set units to millimeters
G90 ; use absolute coordinates
M83 ; use relative distances for extrusion
M900 K0.05 ; Filament gcode LA 1.5
M900 K30 ; Filament gcode LA 1.0
M107
;LAYER_CHANGE
;Z:0.2
;HEIGHT:0.2
G1 E-.8 F2100
M73 P2 R4
M73 Q2 S4
G1 Z.6 F720
G1 X182.953 Y27.038 F10800
G1 Z.2 F720
G1 E.8 F2100
M204 S800
;TYPE:Skirt/Brim
;WIDTH:0.42
G1 F1200
G1 X183.215 Y26.194 E.02771
G1 X183.608 Y25.438 E.02672
G1 X184.239 Y24.648 E.0317
G1 X184.987 Y24.026 E.0305
G1 X185.839 Y23.568 E.03033
G1 X186.765 Y23.288 E.03033
G1 X187.674 Y23.198 E.02864
G1 X188.614 Y23.285 E.0296
G1 X189.525 Y23.555 E.02979
G1 X190.233 Y23.925 E.02505
G1 X191.365 Y23.309 E.04041
G1 X192.351 Y23.056 E.03192
G1 X193.331 Y23.011 E.03076
G1 X194.151 Y23.13 E.02598
G1 X194.981 Y23.402 E.02739
G1 X195.745 Y23.817 E.02726
G1 X196.401 Y24.34 E.02631
G1 X197.194 Y25.32 E.03953
G1 X197.555 Y26.038 E.0252
G1 X197.799 Y26.834 E.0261
G1 X197.907 Y27.87 E.03266
G1 X197.796 Y28.888 E.03211
G1 X197.474 Y29.858 E.03205
M73 Q3 S4
G1 X197.158 Y30.416 E.02011
G1 X197.61 Y31.333 E.03205
G1 X197.845 Y32.193 E.02795
G1 X197.917 Y33.183 E.03112
M73 P3 R4
G1 X197.817 Y34.023 E.02652
G1 X197.561 Y34.864 E.02756
G1 X197.113 Y35.713 E.0301
G1 X196.476 Y36.486 E.03141
G1 X195.692 Y37.114 E.0315
G1 X194.793 Y37.569 E.03159
G1 X193.828 Y37.826 E.03131
G1 X192.96 Y37.885 E.02728
G1 X192.123 Y37.793 E.0264
G1 X191.16 Y37.494 E.03162
G1 X190.681 Y37.235 E.01707
G1 X189.513 Y37.919 E.04244
G1 X188.583 Y38.186 E.03034
G1 X187.656 Y38.264 E.02917
G1 X186.698 Y38.157 E.03022
G1 X185.857 Y37.895 E.02762
G1 X185.075 Y37.483 E.02771
G1 X184.33 Y36.887 E.02991
G1 X183.785 Y36.258 E.0261
G1 X183.291 Y35.404 E.03093
G1 X182.984 Y34.482 E.03047
G1 X182.867 Y33.57 E.02883
G1 X182.947 Y32.526 E.03283
G1 X183.222 Y31.588 E.03065
G1 X183.663 Y30.744 E.02986
G1 X183.203 Y29.873 E.03088
G1 X182.945 Y29.019 E.02797
G1 X182.847 Y28.067 E.03001
G1 X182.947 Y27.098 E.03054
M204 S1000
G1 X182.947 Y27.098 F10800
G1 X183.319 Y27.135
M204 S800
G1 F1200
G1 X183.319 Y27.13 E.00016
G1 X183.558 Y26.352 E.02552
G1 X183.934 Y25.629 E.02555
G1 X184.52 Y24.9 E.02933
G1 X185.212 Y24.329 E.02813
G1 X185.999 Y23.91 E.02796
G1 X186.855 Y23.655 E.028
G1 X187.691 Y23.575 E.02633
G1 X188.559 Y23.659 E.02734
G1 X189.398 Y23.911 E.02747
G1 X190.274 Y24.374 E.03107
G1 X190.638 Y24.092 E.01444
G1 X191.48 Y23.669 E.02954
G1 X192.39 Y23.431 E.02949
G1 X193.296 Y23.387 E.02844
G1 X194.05 Y23.494 E.02388
G1 X194.847 Y23.755 E.0263
G1 X195.549 Y24.14 E.0251
G1 X196.149 Y24.621 E.02411
G1 X196.866 Y25.507 E.03574
G1 X197.21 Y26.193 E.02406
G1 X197.433 Y26.926 E.02402
G1 X197.53 Y27.887 E.03028
G1 X197.424 Y28.825 E.0296
G1 X197.123 Y29.72 E.02961
G1 X196.704 Y30.449 E.02636
G1 X197.252 Y31.45 E.03578
G1 X197.477 Y32.274 E.02678
G1 X197.54 Y33.157 E.02776
M73 Q4 S4
G1 X197.445 Y33.961 E.02538
G1 X197.207 Y34.735 E.02539
G1 X196.789 Y35.519 E.02786
G1 X196.198 Y36.231 E.02901
M73 P4 R4
G1 X195.504 Y36.787 E.02788
G1 X194.675 Y37.21 E.02918
G1 X193.783 Y37.452 E.02898
G1 X192.984 Y37.508 E.02511
G1 X192.183 Y37.42 E.02527
G1 X191.292 Y37.141 E.02927
G1 X190.645 Y36.783 E.02318
G1 X190.166 Y37.156 E.01904
G1 X189.389 Y37.562 E.02749
G1 X188.531 Y37.812 E.02802
G1 X187.677 Y37.887 E.02688
G1 X186.793 Y37.791 E.02788
G1 X185.986 Y37.54 E.0265
G1 X185.268 Y37.159 E.02549
G1 X184.581 Y36.605 E.02767
G1 X184.082 Y36.026 E.02397
G1 X183.628 Y35.233 E.02865
G1 X183.348 Y34.382 E.02809
G1 X183.243 Y33.542 E.02654
G1 X183.314 Y32.614 E.02918
G1 X183.578 Y31.713 E.02944
G1 X184.139 Y30.745 E.03508
G1 X183.545 Y29.714 E.03731
G1 X183.312 Y28.928 E.0257
G1 X183.224 Y28.085 E.02658
G1 X183.313 Y27.194 E.02808
M204 S1000
G1 X183.313 Y27.194 F10800
G1 X183.684 Y27.231
M204 S800
G1 F1200
G1 X183.685 Y27.223 E.00025
G1 X183.913 Y26.48 E.02437
G1 X184.259 Y25.821 E.02334
G1 X184.8 Y25.153 E.02695
G1 X185.435 Y24.633 E.02573
G1 X186.158 Y24.252 E.02562
G1 X186.942 Y24.022 E.02562
G1 X187.707 Y23.952 E.02409
G1 X188.502 Y24.032 E.02505
G1 X189.271 Y24.266 E.0252
G1 X190.258 Y24.869 E.03627
G1 X190.826 Y24.419 E.02272
G1 X191.597 Y24.028 E.02711
G1 X192.43 Y23.807 E.02702
G1 X193.263 Y23.763 E.02615
G1 X193.949 Y23.857 E.02171
G1 X194.712 Y24.107 E.02517
G1 X195.351 Y24.461 E.0229
G1 X195.897 Y24.902 E.02201
G1 X196.539 Y25.696 E.03202
G1 X196.854 Y26.319 E.02189
G1 X197.067 Y27.017 E.02288
G1 X197.153 Y27.903 E.02791
G1 X197.052 Y28.76 E.02706
G1 X196.772 Y29.58 E.02717
G1 X196.218 Y30.442 E.03213
G1 X196.527 Y30.84 E.0158
G1 X196.893 Y31.57 E.0256
G1 X197.102 Y32.322 E.02447
G1 X197.164 Y33.132 E.02547
G1 X197.079 Y33.867 E.0232
G1 X196.852 Y34.606 E.02424
G1 X196.467 Y35.323 E.02552
G1 X195.922 Y35.974 E.02662
G1 X195.285 Y36.48 E.02551
G1 X194.523 Y36.865 E.02677
M73 Q5 S4
G1 X193.738 Y37.077 E.02549
G1 X192.975 Y37.131 E.02398
G1 X192.244 Y37.048 E.02307
G1 X191.425 Y36.787 E.02695
M73 P5 R4
G1 X190.609 Y36.33 E.02932
G1 X189.973 Y36.831 E.02539
G1 X189.264 Y37.206 E.02515
G1 X188.478 Y37.439 E.0257
G1 X187.697 Y37.51 E.02459
G1 X186.885 Y37.425 E.0256
G1 X186.147 Y37.198 E.02421
G1 X185.461 Y36.835 E.02433
G1 X184.832 Y36.323 E.02543
G1 X184.381 Y35.796 E.02175
G1 X183.966 Y35.065 E.02636
G1 X183.712 Y34.284 E.02575
G1 X183.62 Y33.516 E.02425
G1 X183.688 Y32.664 E.0268
G1 X183.934 Y31.839 E.02699
G1 X184.302 Y31.149 E.02452
G1 X184.627 Y30.747 E.01621
G1 X184.3 Y30.336 E.01647
G1 X183.901 Y29.587 E.02661
G1 X183.678 Y28.838 E.0245
G1 X183.601 Y28.066 E.02433
G1 X183.678 Y27.291 E.02442
M204 S1000
G1 X183.678 Y27.291 F10800
G1 X184.05 Y27.328
M204 S800
G1 F1200
G1 X184.051 Y27.314 E.00044
G1 X184.256 Y26.639 E.02212
G1 X184.584 Y26.014 E.02213
G1 X185.08 Y25.407 E.02458
G1 X185.657 Y24.939 E.02329
G1 X186.315 Y24.596 E.02327
G1 X187.028 Y24.39 E.02327
G1 X187.722 Y24.329 E.02184
G1 X188.411 Y24.398 E.02171
G1 X189.112 Y24.609 E.02295
G1 X189.733 Y24.935 E.02199
G1 X190.289 Y25.378 E.02229
G1 X191.017 Y24.745 E.03025
G1 X191.715 Y24.386 E.02461
G1 X192.471 Y24.182 E.02455
G1 X193.232 Y24.139 E.0239
G1 X193.85 Y24.222 E.01955
G1 X194.547 Y24.447 E.02296
G1 X195.128 Y24.765 E.02077
G1 X195.644 Y25.182 E.0208
G1 X196.211 Y25.884 E.02829
G1 X196.51 Y26.474 E.02074
G1 X196.7 Y27.108 E.02075
G1 X196.776 Y27.88 E.02432
G1 X196.688 Y28.66 E.02461
G1 X196.436 Y29.407 E.02472
G1 X196.08 Y30.02 E.02223
G1 X195.725 Y30.428 E.01696
G1 X196.2 Y31.028 E.02399
G1 X196.536 Y31.69 E.02328
G1 X196.728 Y32.371 E.02218
G1 X196.787 Y33.108 E.02318
G1 X196.707 Y33.806 E.02203
G1 X196.498 Y34.475 E.02198
G1 X196.144 Y35.126 E.02323
G1 X195.671 Y35.691 E.0231
G1 X195.095 Y36.153 E.02315
G1 X194.404 Y36.507 E.02434
G1 X193.691 Y36.702 E.02318
G1 X192.998 Y36.754 E.02179
G1 X192.338 Y36.682 E.02082
G1 X191.59 Y36.448 E.02457
G1 X190.972 Y36.107 E.02213
G1 X190.573 Y35.779 E.01619
G1 X189.78 Y36.507 E.03375
G1 X189.136 Y36.851 E.02289
G1 X188.422 Y37.065 E.02337
G1 X187.716 Y37.133 E.02224
M73 Q6 S4
G1 X186.976 Y37.059 E.02332
G1 X186.307 Y36.857 E.02191
G1 X185.655 Y36.511 E.02314
G1 X185.085 Y36.043 E.02312
M73 P6 R4
G1 X184.681 Y35.566 E.0196
G1 X184.304 Y34.897 E.02408
G1 X184.077 Y34.187 E.02337
G1 X183.996 Y33.492 E.02194
G1 X184.062 Y32.717 E.02439
G1 X184.289 Y31.967 E.02457
G1 X184.624 Y31.345 E.02215
G1 X185.116 Y30.748 E.02426
G1 X184.623 Y30.141 E.02452
G1 X184.256 Y29.459 E.02428
G1 X184.052 Y28.782 E.02217
G1 X183.978 Y28.048 E.02313
G1 X184.044 Y27.388 E.0208
M204 S1000
G1 X184.044 Y27.388 F10800
G1 X184.416 Y27.425
M204 S800
G1 F1200
G1 X184.418 Y27.406 E.0006
G1 X184.611 Y26.766 E.02096
G1 X184.907 Y26.208 E.0198
G1 X185.358 Y25.662 E.0222
G1 X185.878 Y25.245 E.0209
G1 X186.47 Y24.94 E.02088
G1 X187.113 Y24.758 E.02095
G1 X187.735 Y24.707 E.01957
G1 X188.322 Y24.765 E.01849
G1 X188.953 Y24.951 E.02063
G1 X189.54 Y25.26 E.0208
G1 X190.293 Y25.963 E.0323
G1 X190.715 Y25.47 E.02035
G1 X191.237 Y25.052 E.02097
G1 X191.868 Y24.731 E.0222
G1 X192.514 Y24.557 E.02098
G1 X193.202 Y24.515 E.02161
G1 X193.753 Y24.586 E.01742
G1 X194.382 Y24.787 E.0207
G1 X194.931 Y25.087 E.01962
G1 X195.39 Y25.462 E.01858
G1 X195.885 Y26.073 E.02466
G1 X196.154 Y26.599 E.01852
G1 X196.334 Y27.198 E.01961
G1 X196.399 Y27.896 E.02198
G1 X196.323 Y28.56 E.02096
G1 X196.1 Y29.235 E.02229
G1 X195.764 Y29.814 E.02099
G1 X195.187 Y30.464 E.02725
G1 X195.873 Y31.219 E.03198
G1 X196.178 Y31.811 E.02088
G1 X196.36 Y32.455 E.02098
G1 X196.409 Y33.117 E.02081
G1 X196.335 Y33.743 E.01976
G1 X196.144 Y34.343 E.01974
G1 X195.823 Y34.927 E.02089
G1 X195.395 Y35.434 E.0208
G1 X194.905 Y35.827 E.01969
G1 X194.283 Y36.149 E.02196
G1 X193.642 Y36.328 E.02087
G1 X193.019 Y36.377 E.01959
G1 X192.431 Y36.316 E.01854
G1 X191.755 Y36.108 E.02218
G1 X191.171 Y35.786 E.02091
G1 X190.534 Y35.252 E.02606
G1 X190.017 Y35.837 E.02448
G1 X189.585 Y36.184 E.01737
G1 X189.007 Y36.496 E.02059
G1 X188.367 Y36.692 E.02099
G1 X187.699 Y36.756 E.02104
G1 X187.034 Y36.686 E.02097
G1 X186.436 Y36.502 E.01962
G1 X185.851 Y36.188 E.02082
G1 X185.339 Y35.764 E.02084
G1 X184.982 Y35.338 E.01743
G1 X184.644 Y34.731 E.02178
G1 X184.443 Y34.093 E.02097
G1 X184.373 Y33.47 E.01966
G1 X184.436 Y32.771 E.02201
G1 X184.643 Y32.097 E.02211
G1 X184.946 Y31.543 E.0198
G1 X185.375 Y31.028 E.02102
G1 X185.725 Y30.747 E.01407
G1 X184.945 Y29.944 E.0351
M73 Q7 S4
G1 X184.612 Y29.331 E.02187
G1 X184.418 Y28.692 E.02094
G1 X184.355 Y28.031 E.02082
M73 P7 R4
G1 X184.41 Y27.484 E.01724
M204 S1000
G1 X184.41 Y27.484 F10800
G1 X184.785 Y27.522
M204 S800
G1 F1200
G1 X184.791 Y27.462 E.00189
G1 X184.966 Y26.896 E.01858
G1 X185.23 Y26.404 E.01751
G1 X185.634 Y25.919 E.01979
G1 X186.096 Y25.553 E.01848
G1 X186.623 Y25.285 E.01854
G1 X187.195 Y25.126 E.01861
G1 X187.746 Y25.084 E.01733
G1 X188.264 Y25.138 E.01633
G1 X188.827 Y25.307 E.01843
G1 X189.318 Y25.565 E.01739
G1 X189.778 Y25.936 E.01853
G1 X190.353 Y26.638 E.02845
G1 X190.966 Y25.753 E.03375
G1 X191.457 Y25.359 E.01974
G1 X192.019 Y25.078 E.0197
G1 X192.591 Y24.927 E.01855
G1 X193.173 Y24.892 E.01828
G1 X194.22 Y25.127 E.03364
G1 X194.707 Y25.391 E.01737
G1 X195.137 Y25.742 E.0174
G1 X195.558 Y26.263 E.021
G1 X195.81 Y26.755 E.01733
G1 X195.967 Y27.286 E.01736
G1 X196.022 Y27.875 E.01855
G1 X195.958 Y28.464 E.01858
G1 X195.764 Y29.063 E.01974
G1 X195.447 Y29.608 E.01977
G1 X195.083 Y30.02 E.01724
G1 X194.556 Y30.437 E.02107
G1 X195.174 Y30.949 E.02516
G1 X195.548 Y31.41 E.01861
G1 X195.821 Y31.935 E.01855
G1 X195.985 Y32.505 E.0186
G1 X196.033 Y33.092 E.01847
G1 X195.963 Y33.68 E.01857
G1 X195.791 Y34.208 E.01741
G1 X195.504 Y34.727 E.0186
G1 X195.12 Y35.175 E.0185
G1 X194.713 Y35.502 E.01637
G1 X194.16 Y35.792 E.01958
G1 X193.592 Y35.954 E.01852
G1 X193.04 Y36 E.01737
G1 X192.489 Y35.943 E.01737
G1 X191.887 Y35.754 E.01978
G1 X191.371 Y35.466 E.01853
G1 X190.949 Y35.108 E.01735
G1 X190.476 Y34.532 E.02337
G1 X190.106 Y35.167 E.02304
G1 X189.766 Y35.555 E.01618
G1 X188.876 Y36.142 E.03343
G1 X188.311 Y36.318 E.01855
G1 X187.683 Y36.379 E.01978
G1 X187.095 Y36.313 E.01855
G1 X186.567 Y36.148 E.01734
G1 X186.048 Y35.866 E.01852
G1 X185.284 Y35.112 E.03366
G1 X184.983 Y34.567 E.01952
G1 X184.809 Y34 E.0186
G1 X184.75 Y33.45 E.01734
G1 X184.809 Y32.826 E.01965
G1 X184.984 Y32.26 E.01858
G1 X185.248 Y31.769 E.01748
G1 X185.65 Y31.287 E.01968
G1 X186.396 Y30.709 E.02959
G1 X185.969 Y30.458 E.01553
G1 X185.266 Y29.746 E.03137
G1 X184.966 Y29.201 E.01951
G1 X184.791 Y28.634 E.01861
G1 X184.733 Y28.049 E.01843
G1 X184.779 Y27.581 E.01474
M204 S1000
G1 X184.779 Y27.581 F10800
G1 X185.158 Y27.582
M204 S800
G1 F1200
G1 X185.158 Y27.552 E.00094
G1 X185.307 Y27.057 E.01621
G1 X185.552 Y26.601 E.01623
G1 X185.91 Y26.177 E.0174
G1 X186.743 Y25.643 E.03102
G1 X187.277 Y25.495 E.01737
G1 X188.173 Y25.504 E.02809
G1 X188.7 Y25.663 E.01726
G1 X189.524 Y26.215 E.0311
G1 X189.872 Y26.646 E.01737
G1 X190.207 Y27.446 E.02719
M73 Q8 S4
G1 X190.485 Y27.448 E.00872
G1 X190.68 Y26.831 E.02029
G1 X190.933 Y26.377 E.0163
M73 P8 R4
G1 X191.646 Y25.686 E.03113
G1 X192.137 Y25.436 E.01728
G1 X192.635 Y25.302 E.01617
G1 X193.564 Y25.317 E.02913
G1 X194.059 Y25.469 E.01624
G1 X194.884 Y26.022 E.03114
G1 X195.231 Y26.452 E.01732
G1 X195.599 Y27.372 E.03107
G1 X195.644 Y27.888 E.01624
G1 X195.586 Y28.401 E.01619
G1 X195.412 Y28.926 E.01734
G1 X195.153 Y29.372 E.01617
G1 X194.483 Y30.014 E.02909
G1 X193.568 Y30.477 E.03215
G1 X194.495 Y30.876 E.03164
G1 X194.896 Y31.203 E.01622
G1 X195.223 Y31.602 E.01617
G1 X195.478 Y32.091 E.01729
G1 X195.656 Y33.068 E.03114
G1 X195.598 Y33.582 E.01622
G1 X195.439 Y34.074 E.01621
G1 X195.185 Y34.524 E.0162
G1 X194.52 Y35.178 E.02924
G1 X194.035 Y35.436 E.01722
G1 X193.539 Y35.58 E.01619
G1 X192.548 Y35.57 E.03107
G1 X192.02 Y35.401 E.01738
G1 X191.601 Y35.167 E.01505
G1 X190.922 Y34.481 E.03026
G1 X190.574 Y33.699 E.02684
G1 X190.277 Y33.724 E.00935
G1 X190.085 Y34.452 E.02361
G1 X189.81 Y34.933 E.01737
G1 X189.166 Y35.557 E.02812
G1 X188.714 Y35.801 E.01611
G1 X188.221 Y35.952 E.01617
G1 X187.67 Y36.001 E.01734
G1 X186.701 Y35.795 E.03106
G1 X186.247 Y35.545 E.01625
G1 X185.587 Y34.887 E.02922
G1 X185.324 Y34.405 E.01722
G1 X185.175 Y33.91 E.01621
G1 X185.175 Y32.919 E.03107
G1 X185.339 Y32.39 E.01737
G1 X185.901 Y31.569 E.0312
G1 X186.335 Y31.225 E.01736
G1 X187.211 Y30.879 E.02953
G1 X187.216 Y30.6 E.00875
G1 X186.65 Y30.414 E.01868
G1 X186.2 Y30.159 E.01622
G1 X185.57 Y29.521 E.02811
G1 X185.307 Y29.038 E.01724
G1 X185.157 Y28.543 E.01622
G1 X185.158 Y27.642 E.02825
M204 S1000
;WIPE_START
G1 F8640
G1 X185.158 Y27.582 E-.01385
G1 X185.158 Y27.552 E-.00693
G1 X185.307 Y27.057 E-.11936
