; generated by PrusaSlicer 2.8.0+win64 on 2024-10-21 at 20:19:05 UTC


;
;
; 

; external perimeters extrusion width = 0.45mm
; perimeters extrusion width = 0.45mm
; infill extrusion width = 0.45mm
; solid infill extrusion width = 0.45mm
; top infill extrusion width = 0.40mm
; first layer extrusion width = 0.42mm

; external perimeters extrusion width = 0.45mm
; perimeters extrusion width = 0.45mm
; infill extrusion width = 0.45mm
; solid infill extrusion width = 0.45mm
; top infill extrusion width = 0.40mm
; first layer extrusion width = 0.42mm

; external perimeters extrusion width = 0.45mm
; perimeters extrusion width = 0.45mm
; infill extrusion width = 0.45mm
; solid infill extrusion width = 0.45mm
; top infill extrusion width = 0.40mm
; first layer extrusion width = 0.42mm

; external perimeters extrusion width = 0.45mm
; perimeters extrusion width = 0.45mm
; infill extrusion width = 0.45mm
; solid infill extrusion width = 0.45mm
; top infill extrusion width = 0.40mm
; first layer extrusion width = 0.42mm

M73 P0 R13
M73 Q0 S13
M201 X1000 Y1000 Z200 E5000 ; sets maximum accelerations, mm/sec^2
M203 X200 Y200 Z12 E120 ; sets maximum feedrates, mm / sec
M204 S1250 T1250 ; sets acceleration (S) and retract acceleration (R), mm/sec^2
M205 X8.00 Y8.00 Z0.40 E4.50 ; sets the jerk limits, mm/sec
M205 S0 T0 ; sets the minimum extruding and travel feed rate, mm/sec

; printing object temp_box_button_cap.stl id:0 copy 0
; stop printing object temp_box_button_cap.stl id:0 copy 0
; printing object temp_box_button_cap.stl id:2 copy 0
; stop printing object temp_box_button_cap.stl id:2 copy 0
; printing object temp_box_button_cap.stl id:1 copy 0
; stop printing object temp_box_button_cap.stl id:1 copy 0
; printing object temp_box_button_cap.stl id:3 copy 0
; stop printing object temp_box_button_cap.stl id:3 copy 0

;TYPE:Custom
M862.3 P "MK3S" ; printer model check
M862.1 P0.4 ; nozzle diameter check
M115 U3.13.3 ; tell printer latest fw version
G90 ; use absolute coordinates
M83 ; extruder relative mode
M104 S205 ; set extruder temp
M140 S67 ; set bed temp
M190 S67 ; wait for bed temp
M109 S205 ; wait for extruder temp
G28 W ; home all without mesh bed level
G80 X177.828 Y26.9555 W16.8001 H16.7999 ; mesh bed levelling

G1 Z0.2 F720
G1 Y-3 F1000 ; go outside print area
G92 E0
G1 X60 E9 F1000 ; intro line
G1 X100 E12.5 F1000 ; intro line

G92 E0
M221 S95

; Don't change E values below. Excessive value can damage the printer.
M907 E430 ; set extruder motor current
G21 ; set units to millimeters
G90 ; use absolute coordinates
M83 ; use relative distances for extrusion
M900 K0.05 ; Filament gcode LA 1.5
M900 K30 ; Filament gcode LA 1.0
M107
;LAYER_CHANGE
;Z:0.2
;HEIGHT:0.2
G1 E-.8 F2100
G1 Z.6 F720
G1 X178.549 Y31.077 F10800
G1 Z.2 F720
G1 E.8 F2100
M204 S800
;TYPE:Skirt/Brim
;WIDTH:0.42
G1 F1200
G1 X178.868 Y30.229 E.02841
G1 X179.322 Y29.479 E.02749
G1 X179.965 Y28.767 E.03008
G1 X180.734 Y28.196 E.03003
G1 X181.591 Y27.79 E.02973
G1 X182.513 Y27.558 E.02981
G1 X183.541 Y27.515 E.03226
G1 X184.519 Y27.68 E.0311
G1 X185.374 Y28.006 E.02869
G1 X186.253 Y28.545 E.03233
G1 X186.761 Y28.18 E.01961
G1 X187.711 Y27.748 E.03272
G1 X188.606 Y27.545 E.02877
G1 X189.506 Y27.513 E.02824
G1 X190.398 Y27.648 E.02829
G1 X191.291 Y27.966 E.02972
G1 X192.144 Y28.479 E.03121
G1 X192.846 Y29.125 E.02991
G1 X193.423 Y29.921 E.03083
G1 X193.803 Y30.745 E.02845
M73 Q1 S13
G1 X194.023 Y31.628 E.02853
G1 X194.071 Y32.614 E.03095
G1 X193.937 Y33.518 E.02865
M73 P1 R13
G1 X193.62 Y34.413 E.02977
G1 X193.038 Y35.378 E.03533
G1 X193.378 Y35.844 E.01809
G1 X193.803 Y36.745 E.03124
G1 X194.036 Y37.713 E.03122
G1 X194.067 Y38.696 E.03084
G1 X193.929 Y39.552 E.02719
G1 X193.654 Y40.341 E.0262
G1 X193.184 Y41.163 E.02969
G1 X192.496 Y41.939 E.03252
G1 X191.662 Y42.551 E.03243
G1 X190.789 Y42.947 E.03006
G1 X189.862 Y43.164 E.02985
G1 X188.956 Y43.198 E.02843
G1 X188.062 Y43.064 E.02834
G1 X187.166 Y42.746 E.02981
G1 X186.205 Y42.165 E.03521
G1 X185.742 Y42.504 E.01799
G1 X184.876 Y42.917 E.03008
G1 X183.905 Y43.158 E.03137
G1 X182.919 Y43.196 E.03094
G1 X182.06 Y43.063 E.02725
G1 X181.208 Y42.765 E.0283
G1 X180.418 Y42.31 E.02858
G1 X179.643 Y41.622 E.03249
G1 X179.031 Y40.788 E.03243
G1 X178.635 Y39.916 E.03003
G1 X178.419 Y38.992 E.02975
G1 X178.385 Y38.086 E.02843
G1 X178.519 Y37.192 E.02834
G1 X178.837 Y36.296 E.02981
G1 X179.418 Y35.333 E.03526
G1 X179.076 Y34.862 E.01825
G1 X178.637 Y33.922 E.03253
G1 X178.431 Y33.071 E.02745
G1 X178.383 Y32.13 E.02954
G1 X178.539 Y31.136 E.03155
M204 S1000
G1 X178.539 Y31.136 F10800
G1 X178.909 Y31.193
M204 S800
G1 F1200
G1 X178.909 Y31.19 E.00009
G1 X179.201 Y30.407 E.0262
G1 X179.615 Y29.718 E.0252
G1 X180.232 Y29.034 E.02888
G1 X180.942 Y28.511 E.02765
G1 X181.734 Y28.139 E.02744
G1 X182.585 Y27.929 E.02748
G1 X183.499 Y27.891 E.02868
G1 X184.403 Y28.04 E.02873
G1 X185.223 Y28.352 E.02751
G1 X186.213 Y29.043 E.03785
G1 X186.935 Y28.515 E.02805
G1 X187.849 Y28.1 E.03147
G1 X188.67 Y27.917 E.02637
G1 X189.5 Y27.89 E.02604
G1 X190.323 Y28.018 E.02611
G1 X191.113 Y28.299 E.02629
G1 X191.932 Y28.792 E.02997
G1 X192.576 Y29.389 E.02753
G1 X193.088 Y30.096 E.02737
G1 X193.453 Y30.886 E.02729
G1 X193.653 Y31.7 E.02628
G1 X193.696 Y32.577 E.02753
G1 X193.567 Y33.444 E.02748
G1 X193.271 Y34.269 E.02748
G1 X192.842 Y34.992 E.02636
G1 X192.539 Y35.34 E.01447
G1 X193.045 Y36.024 E.02668
G1 X193.442 Y36.854 E.02885
G1 X193.659 Y37.746 E.02878
G1 X193.691 Y38.656 E.02855
G1 X193.567 Y39.444 E.02501
G1 X193.304 Y40.2 E.0251
G1 X192.867 Y40.958 E.02743
G1 X192.256 Y41.648 E.0289
G1 X191.486 Y42.217 E.03002
G1 X190.685 Y42.585 E.02764
G1 X189.795 Y42.793 E.02866
G1 X188.962 Y42.821 E.02613
G1 X188.137 Y42.694 E.02617
G1 X187.311 Y42.397 E.02752
G1 X186.588 Y41.966 E.02639
G1 X186.243 Y41.666 E.01433
G1 X185.561 Y42.172 E.02663
G1 X184.766 Y42.556 E.02768
G1 X183.833 Y42.787 E.03014
G1 X182.958 Y42.821 E.02746
G1 X182.135 Y42.693 E.02611
G1 X181.351 Y42.416 E.02607
G1 X180.624 Y41.993 E.02637
G1 X179.934 Y41.382 E.0289
G1 X179.366 Y40.612 E.03
G1 X178.998 Y39.811 E.02764
G1 X178.791 Y38.924 E.02856
G1 X178.762 Y38.091 E.02613
G1 X178.889 Y37.267 E.02614
G1 X179.185 Y36.44 E.02754
G1 X179.615 Y35.717 E.02638
G1 X179.917 Y35.371 E.0144
G1 X179.409 Y34.685 E.02676
G1 X178.987 Y33.781 E.03128
G1 X178.801 Y33.001 E.02514
G1 X178.759 Y32.168 E.02615
G1 X178.899 Y31.252 E.02905
M204 S1000
G1 X178.899 Y31.252 F10800
G1 X179.268 Y31.309
M204 S800
G1 F1200
G1 X179.269 Y31.302 E.00022
G1 X179.534 Y30.586 E.02394
G1 X179.928 Y29.928 E.02405
G1 X180.497 Y29.302 E.02652
G1 X181.149 Y28.826 E.02531
G1 X181.875 Y28.489 E.0251
G1 X182.655 Y28.3 E.02516
G1 X183.494 Y28.268 E.02633
G1 X184.288 Y28.399 E.02523
G1 X185.041 Y28.682 E.02522
G1 X185.69 Y29.082 E.0239
G1 X186.237 Y29.573 E.02305
G1 X187.111 Y28.849 E.03558
G1 X187.951 Y28.463 E.02899
G1 X188.735 Y28.289 E.02518
G1 X189.461 Y28.266 E.02277
G1 X190.214 Y28.38 E.02388
G1 X190.969 Y28.648 E.02512
G1 X191.691 Y29.083 E.02643
G1 X192.282 Y29.626 E.02516
G1 X192.772 Y30.302 E.02618
G1 X193.092 Y30.995 E.02393
G1 X193.277 Y31.737 E.02398
G1 X193.318 Y32.576 E.02634
G1 X193.197 Y33.368 E.02512
G1 X192.938 Y34.092 E.02411
G1 X192.527 Y34.783 E.02521
G1 X192.01 Y35.366 E.02443
G1 X192.714 Y36.204 E.03432
G1 X193.081 Y36.965 E.02649
G1 X193.284 Y37.781 E.02636
G1 X193.316 Y38.616 E.0262
G1 X193.197 Y39.368 E.02387
G1 X192.954 Y40.057 E.02291
G1 X192.551 Y40.751 E.02516
G1 X191.989 Y41.381 E.02647
G1 X191.28 Y41.901 E.02757
G1 X190.546 Y42.234 E.02527
G1 X189.762 Y42.417 E.02524
G1 X188.999 Y42.445 E.02394
G1 X188.246 Y42.332 E.02387
G1 X187.487 Y42.063 E.02525
G1 X186.797 Y41.652 E.02518
G1 X186.218 Y41.137 E.0243
G1 X185.38 Y41.841 E.03432
G1 X184.619 Y42.208 E.02649
G1 X183.8 Y42.411 E.02646
G1 X182.963 Y42.443 E.02626
G1 X182.212 Y42.324 E.02384
G1 X181.525 Y42.081 E.02285
G1 X180.831 Y41.677 E.02518
G1 X180.201 Y41.115 E.02647
G1 X179.682 Y40.406 E.02755
G1 X179.349 Y39.673 E.02524
G1 X179.167 Y38.892 E.02514
G1 X179.138 Y38.129 E.02394
G1 X179.251 Y37.375 E.02391
G1 X179.519 Y36.617 E.02521
G1 X179.93 Y35.926 E.02521
G1 X180.446 Y35.345 E.02436
G1 X179.742 Y34.506 E.03434
G1 X179.35 Y33.674 E.02884
G1 X179.172 Y32.931 E.02396
G1 X179.136 Y32.169 E.02392
G1 X179.259 Y31.368 E.02541
M204 S1000
G1 X179.259 Y31.368 F10800
G1 X179.628 Y31.425
M204 S800
G1 F1200
G1 X179.63 Y31.414 E.00035
G1 X179.867 Y30.763 E.02172
G1 X180.22 Y30.168 E.02169
G1 X180.763 Y29.571 E.0253
G1 X181.354 Y29.143 E.02288
G1 X182.015 Y28.84 E.0228
G1 X182.724 Y28.671 E.02285
G1 X183.453 Y28.643 E.02287
G1 X184.173 Y28.759 E.02287
G1 X184.891 Y29.029 E.02405
G1 X185.476 Y29.393 E.0216
G1 X186.211 Y30.159 E.03329
G1 X186.733 Y29.598 E.02403
G1 X187.32 Y29.164 E.02289
G1 X188.054 Y28.827 E.02532
G1 X188.765 Y28.665 E.02286
G1 X189.455 Y28.643 E.02165
G1 X190.137 Y28.749 E.02164
G1 X190.822 Y28.996 E.02283
G1 X191.478 Y29.395 E.02407
G1 X192.011 Y29.889 E.02279
G1 X192.438 Y30.478 E.02281
G1 X192.73 Y31.104 E.02166
M73 Q2 S13
G1 X192.907 Y31.811 E.02285
G1 X192.942 Y32.539 E.02285
G1 X192.836 Y33.259 E.02282
M73 P2 R13
G1 X192.589 Y33.947 E.02292
G1 X192.214 Y34.573 E.02288
G1 X191.423 Y35.343 E.03461
G1 X191.985 Y35.859 E.02392
G1 X192.401 Y36.415 E.02177
G1 X192.732 Y37.11 E.02414
G1 X192.908 Y37.816 E.02281
G1 X192.94 Y38.577 E.02388
G1 X192.836 Y39.259 E.02163
G1 X192.605 Y39.914 E.02178
G1 X192.236 Y40.543 E.02287
G1 X191.722 Y41.114 E.02409
G1 X191.105 Y41.566 E.02398
G1 X190.44 Y41.871 E.02294
G1 X189.728 Y42.041 E.02295
G1 X189.035 Y42.07 E.02175
G1 X188.354 Y41.97 E.02158
G1 X187.632 Y41.714 E.02402
G1 X187.008 Y41.339 E.02283
G1 X186.242 Y40.549 E.0345
G1 X185.725 Y41.112 E.02397
G1 X185.169 Y41.528 E.02177
G1 X184.474 Y41.859 E.02414
G1 X183.765 Y42.036 E.02291
G1 X183.002 Y42.068 E.02394
G1 X182.321 Y41.962 E.02161
G1 X181.668 Y41.732 E.02171
G1 X181.039 Y41.362 E.02288
G1 X180.468 Y40.848 E.02409
G1 X180.016 Y40.231 E.02398
G1 X179.712 Y39.566 E.02293
G1 X179.543 Y38.857 E.02285
G1 X179.514 Y38.165 E.02172
G1 X179.612 Y37.483 E.0216
G1 X179.868 Y36.761 E.02402
G1 X180.243 Y36.137 E.02283
G1 X181.034 Y35.37 E.03455
G1 X180.471 Y34.851 E.02401
G1 X180.055 Y34.296 E.02175
G1 X179.711 Y33.566 E.0253
G1 X179.548 Y32.894 E.02168
G1 X179.514 Y32.17 E.02273
G1 X179.619 Y31.484 E.02176
M204 S1000
G1 X179.619 Y31.484 F10800
G1 X179.988 Y31.541
M204 S800
G1 F1200
G1 X179.991 Y31.525 E.00051
G1 X180.215 Y30.909 E.02055
G1 X180.534 Y30.378 E.01942
G1 X181 Y29.865 E.02173
G1 X181.56 Y29.459 E.02169
G1 X182.122 Y29.202 E.01938
G1 X182.76 Y29.047 E.02059
G1 X183.414 Y29.019 E.02052
G1 X184.061 Y29.119 E.02053
G1 X184.71 Y29.36 E.02171
G1 X185.236 Y29.684 E.01937
G1 X185.694 Y30.1 E.0194
G1 X186.246 Y30.846 E.0291
G1 X186.578 Y30.319 E.01953
G1 X186.972 Y29.89 E.01826
G1 X187.528 Y29.478 E.0217
G1 X188.158 Y29.19 E.02172
G1 X188.796 Y29.042 E.02054
G1 X189.449 Y29.021 E.02048
G1 X190.06 Y29.119 E.0194
G1 X190.643 Y29.328 E.01942
G1 X191.266 Y29.707 E.02286
G1 X191.718 Y30.127 E.01935
G1 X192.106 Y30.656 E.02057
G1 X192.37 Y31.216 E.01941
G1 X192.531 Y31.848 E.02045
G1 X192.565 Y32.538 E.02166
G1 X192.466 Y33.184 E.02049
G1 X192.256 Y33.769 E.01949
G1 X191.9 Y34.363 E.02171
G1 X191.484 Y34.821 E.0194
G1 X190.743 Y35.376 E.02903
G1 X191.235 Y35.684 E.0182
G1 X191.694 Y36.1 E.01942
G1 X192.087 Y36.625 E.02056
G1 X192.382 Y37.252 E.02173
G1 X192.537 Y37.887 E.02049
G1 X192.565 Y38.538 E.02043
G1 X192.466 Y39.184 E.02049
G1 X192.256 Y39.769 E.01949
G1 X191.921 Y40.334 E.0206
G1 X191.456 Y40.846 E.02169
G1 X190.929 Y41.232 E.02048
G1 X190.334 Y41.509 E.02058
G1 X189.659 Y41.67 E.02176
G1 X189.04 Y41.692 E.01942
G1 X188.429 Y41.601 E.01937
G1 X187.778 Y41.366 E.0217
G1 X187.22 Y41.027 E.02047
G1 X186.761 Y40.61 E.01944
G1 X186.21 Y39.865 E.02905
G1 X185.9 Y40.362 E.01837
G1 X185.484 Y40.821 E.01942
G1 X184.959 Y41.214 E.02056
G1 X184.332 Y41.51 E.02174
G1 X183.694 Y41.665 E.02059
G1 X183.039 Y41.692 E.02055
G1 X182.429 Y41.601 E.01934
G1 X181.812 Y41.383 E.02052
G1 X181.248 Y41.048 E.02057
G1 X180.736 Y40.582 E.02171
G1 X180.35 Y40.055 E.02048
G1 X180.074 Y39.46 E.02057
G1 X179.914 Y38.788 E.02166
G1 X179.891 Y38.169 E.01942
G1 X179.982 Y37.558 E.01937
G1 X180.216 Y36.907 E.02169
G1 X180.556 Y36.349 E.02049
G1 X180.972 Y35.89 E.01942
G1 X181.718 Y35.337 E.02912
G1 X181.22 Y35.027 E.01839
G1 X180.761 Y34.61 E.01944
G1 X180.368 Y34.085 E.02056
G1 X180.073 Y33.458 E.02173
G1 X179.919 Y32.824 E.02046
G1 X179.891 Y32.172 E.02046
G1 X179.979 Y31.601 E.01811
M204 S1000
G1 X179.979 Y31.601 F10800
G1 X180.349 Y31.656
M204 S800
G1 F1200
G1 X180.352 Y31.634 E.0007
G1 X180.548 Y31.087 E.01822
G1 X180.847 Y30.589 E.01821
G1 X181.264 Y30.134 E.01935
G1 X181.736 Y29.794 E.01824
G1 X182.23 Y29.564 E.01709
G1 X182.83 Y29.418 E.01936
G1 X183.41 Y29.396 E.0182
G1 X183.949 Y29.48 E.0171
G1 X184.53 Y29.692 E.01939
G1 X184.996 Y29.975 E.01709
G1 X185.426 Y30.366 E.01822
G1 X185.791 Y30.865 E.01938
G1 X186.085 Y31.591 E.02456
G1 X186.359 Y31.603 E.0086
G1 X186.563 Y31.055 E.01833
G1 X186.869 Y30.56 E.01825
G1 X187.238 Y30.158 E.01711
G1 X187.705 Y29.812 E.01822
G1 X188.264 Y29.552 E.01933
G1 X188.829 Y29.418 E.01821
G1 X189.41 Y29.396 E.01823
G1 X189.95 Y29.48 E.01713
G1 X190.497 Y29.676 E.01822
G1 X191.025 Y29.997 E.01937
G1 X191.426 Y30.366 E.01709
G1 X191.773 Y30.834 E.01827
G1 X192.021 Y31.36 E.01823
G1 X192.161 Y31.921 E.01813
G1 X192.189 Y32.502 E.01824
G1 X192.104 Y33.074 E.01813
G1 X191.908 Y33.624 E.01831
G1 X191.608 Y34.123 E.01826
G1 X191.218 Y34.553 E.0182
G1 X190.75 Y34.899 E.01825
G1 X189.992 Y35.212 E.02571
G1 X189.98 Y35.486 E.0086
G1 X190.53 Y35.692 E.01841
G1 X190.996 Y35.975 E.01709
G1 X191.427 Y36.367 E.01827
G1 X191.772 Y36.834 E.0182
G1 X192.032 Y37.393 E.01933
G1 X192.166 Y37.956 E.01815
G1 X192.189 Y38.501 E.0171
G1 X192.104 Y39.075 E.01819
G1 X191.908 Y39.624 E.01828
G1 X191.609 Y40.123 E.01824
G1 X191.191 Y40.577 E.01935
G1 X190.751 Y40.899 E.0171
G1 X190.225 Y41.147 E.01823
G1 X189.626 Y41.293 E.01933
G1 X189.045 Y41.315 E.01823
G1 X188.506 Y41.231 E.0171
G1 X187.925 Y41.019 E.01939
G1 X187.46 Y40.735 E.01708
G1 X187.03 Y40.344 E.01822
G1 X186.665 Y39.846 E.01936
G1 X186.371 Y39.119 E.02459
G1 X186.097 Y39.107 E.0086
G1 X185.892 Y39.656 E.01837
G1 X185.608 Y40.123 E.01714
G1 X185.217 Y40.553 E.01822
G1 X184.751 Y40.899 E.0182
G1 X184.191 Y41.159 E.01936
G1 X183.626 Y41.293 E.01821
G1 X183.045 Y41.315 E.01823
G1 X182.505 Y41.231 E.01713
G1 X181.958 Y41.034 E.01823
G1 X181.46 Y40.735 E.01821
G1 X181.005 Y40.317 E.01937
G1 X180.683 Y39.877 E.0171
G1 X180.435 Y39.352 E.01821
G1 X180.29 Y38.755 E.01926
G1 X180.269 Y38.174 E.01823
G1 X180.352 Y37.635 E.0171
G1 X180.564 Y37.054 E.01939
G1 X180.847 Y36.589 E.01707
G1 X181.238 Y36.158 E.01825
G1 X181.736 Y35.793 E.01936
G1 X182.464 Y35.499 E.02462
G1 X182.476 Y35.225 E.0086
G1 X181.926 Y35.019 E.01841
G1 X181.46 Y34.735 E.01711
G1 X181.029 Y34.344 E.01825
G1 X180.683 Y33.877 E.01822
G1 X180.424 Y33.318 E.01932
G1 X180.29 Y32.755 E.01815
G1 X180.267 Y32.21 E.0171
G1 X180.34 Y31.715 E.01569
M204 S1000
;WIPE_START
G1 F8640
G1 X180.349 Y31.656 E-.01378
G1 X180.352 Y31.634 E-.00513
G1 X180.548 Y31.087 E-.13417
G1 X180.847 Y30.589 E-.13412
G1 X181.264 Y30.134 E-.14251
G1 X181.736 Y29.794 E-.13432
G1 X182.23 Y29.564 E-.12582
G1 X182.693 Y29.451 E-.11015
;WIPE_END
G1 Z.6 F720
G1 X186.702 Y32.067 F10800
G1 Z.2 F720
G1 E.8 F2100
M204 S800
G1 F1200
G1 X186.722 Y31.711 E.01118
G1 X187.159 Y30.801 E.03165
G1 X187.912 Y30.127 E.03169
G1 X188.865 Y29.793 E.03166
G1 X189.874 Y29.85 E.03169
G1 X190.784 Y30.288 E.03167
G1 X191.457 Y31.041 E.03167
G1 X191.79 Y31.992 E.03159
G1 X191.735 Y32.998 E.03159
G1 X191.56 Y33.477 E.01599
G1 X191.296 Y33.91 E.0159
G1 X190.544 Y34.584 E.03166
G1 X189.591 Y34.918 E.03166
G1 X188.582 Y34.861 E.03169
G1 X187.672 Y34.423 E.03167
G1 X186.999 Y33.67 E.03167
G1 X186.666 Y32.719 E.03159
G1 X186.699 Y32.127 E.01859
M73 Q3 S13
M204 S1000
;WIPE_START
G1 F8640
G1 X186.702 Y32.067 E-.01387
G1 X186.722 Y31.711 E-.08233
G1 X187.159 Y30.801 E-.23309
M73 P3 R13
