; generated by PrusaSlicer 2.8.0+win64 on 2024-10-21 at 20:16:47 UTC


;
;
; 

; external perimeters extrusion width = 0.60mm
; perimeters extrusion width = 0.50mm
; infill extrusion width = 0.50mm
; solid infill extrusion width = 0.50mm
; top infill extrusion width = 0.45mm
; first layer extrusion width = 0.42mm

M73 P0 R99
M73 Q0 S100
M201 X1000 Y1000 Z200 E5000 ; sets maximum accelerations, mm/sec^2
M203 X200 Y200 Z12 E120 ; sets maximum feedrates, mm / sec
M204 S1250 T1250 ; sets acceleration (S) and retract acceleration (R), mm/sec^2
M205 X8.00 Y8.00 Z0.40 E4.50 ; sets the jerk limits, mm/sec
M205 S0 T0 ; sets the minimum extruding and travel feed rate, mm/sec

; printing object temp_box_top.stl id:0 copy 0
; stop printing object temp_box_top.stl id:0 copy 0

;TYPE:Custom
M862.3 P "MK3S" ; printer model check
M862.1 P0.4 ; nozzle diameter check
M115 U3.13.3 ; tell printer latest fw version
G90 ; use absolute coordinates
M83 ; extruder relative mode
M104 S205 ; set extruder temp
M140 S67 ; set bed temp
M190 S67 ; wait for bed temp
M109 S205 ; wait for extruder temp
G28 W ; home all without mesh bed level
G80 X131.237 Y19.037 W85.5 H59.5 ; mesh bed levelling

G1 Z0.2 F720
G1 Y-3 F1000 ; go outside print area
G92 E0
G1 X60 E9 F1000 ; intro line
G1 X100 E12.5 F1000 ; intro line
M73 P0 R98

G92 E0
M221 S95

; Don't change E values below. Excessive value can damage the printer.

M907 E538 ; set extruder motor current
G21 ; set units to millimeters
G90 ; use absolute coordinates
M83 ; use relative distances for extrusion
M900 K0.05 ; Filament gcode LA 1.5
M900 K30 ; Filament gcode LA 1.0
M107
;LAYER_CHANGE
;Z:0.2
;HEIGHT:0.2
G1 E-.8 F2100
G1 Z.6 F720
; printing object temp_box_top.stl id:0 copy 0
G1 X207.697 Y31.055 F10800
G1 Z.2 F720
G1 E.8 F2100
M204 S800
;TYPE:Perimeter
;WIDTH:0.419999
G1 F1200
G1 X207.912 Y31.325 E.01082
G1 X208.063 Y31.745 E.01399
G1 X208.083 Y31.976 E.00727
G1 X208.083 Y48.718 E.52493
G1 X208.012 Y49.146 E.0136
G1 X207.819 Y49.51 E.01292
G1 X207.555 Y49.774 E.01171
G1 X207.271 Y49.937 E.01027
G1 X206.878 Y50.033 E.01268
G1 X206.764 Y50.038 E.00358
G1 X177.821 Y50.038 E.90749
G1 X177.47 Y49.991 E.0111
G1 X177.053 Y49.792 E.01449
G1 X176.751 Y49.491 E.01337
G1 X176.554 Y49.09 E.01401
G1 X176.501 Y48.718 E.01178
G1 X176.504 Y31.89 E.52763
G1 X176.588 Y31.503 E.01242
G1 X176.765 Y31.184 E.01144
G1 X177.069 Y30.891 E.01324
G1 X177.496 Y30.696 E.01472
G1 X177.821 Y30.656 E.01027
G1 X206.764 Y30.656 E.90749
G1 X207.074 Y30.693 E.00979
M73 Q0 S99
G1 X207.359 Y30.798 E.00952
G1 X207.656 Y31.004 E.01133
G1 X207.66 Y31.008 E.00018
M204 S1000
G1 X207.66 Y31.008 F10800
G1 X207.432 Y31.32
M204 S800
G1 F1200
G1 X207.584 Y31.511 E.00765
G1 X207.692 Y31.811 E.01
G1 X207.706 Y31.976 E.00519
G1 X207.706 Y48.718 E.52493
G1 X207.655 Y49.024 E.00973
G1 X207.518 Y49.284 E.00921
G1 X207.228 Y49.539 E.01211
G1 X206.934 Y49.646 E.00981
G1 X206.764 Y49.661 E.00535
G1 X177.821 Y49.661 E.90749
G1 X177.451 Y49.586 E.01184
G1 X177.142 Y49.373 E.01177
G1 X176.947 Y49.073 E.01122
G1 X176.878 Y48.718 E.01134
G1 X176.88 Y31.915 E.52685
G1 X176.973 Y31.562 E.01145
G1 X177.201 Y31.265 E.01174
G1 X177.479 Y31.097 E.01018
G1 X177.821 Y31.033 E.01091
G1 X206.764 Y31.033 E.90749
G1 X207.09 Y31.091 E.01038
G1 X207.393 Y31.276 E.01113
M204 S1000
G1 X207.393 Y31.276 F10800
G1 X207.15 Y31.577
M204 S800
G1 F1200
G1 X207.205 Y31.622 E.00223
G1 X207.32 Y31.877 E.00877
G1 X207.329 Y31.976 E.00312
G1 X207.329 Y48.718 E.52493
G1 X207.263 Y48.985 E.00862
G1 X207.103 Y49.171 E.00769
G1 X206.866 Y49.275 E.00811
G1 X206.764 Y49.284 E.00321
G1 X177.821 Y49.284 E.90749
G1 X177.542 Y49.21 E.00905
G1 X177.341 Y49.018 E.00872
G1 X177.256 Y48.755 E.00867
G1 X177.256 Y31.939 E.52725
G1 X177.337 Y31.682 E.00845
G1 X177.499 Y31.511 E.00739
G1 X177.75 Y31.414 E.00844
G1 X177.821 Y31.41 E.00223
G1 X206.764 Y31.41 E.90749
G1 X207.019 Y31.471 E.00822
G1 X207.103 Y31.539 E.00339
M204 S1000
G1 X207.103 Y31.539 F10800
G1 X206.866 Y31.836
M204 S800
;TYPE:External perimeter
G1 F1200
G1 X206.911 Y31.858 E.00157
G1 X206.952 Y31.976 E.00392
G1 X206.952 Y48.718 E.52493
G1 X206.896 Y48.852 E.00455
G1 X206.764 Y48.907 E.00448
G1 X177.821 Y48.907 E.90749
G1 X177.678 Y48.842 E.00493
G1 X177.632 Y48.718 E.00415
G1 X177.632 Y31.963 E.52534
G1 X177.697 Y31.833 E.00456
G1 X177.821 Y31.787 E.00415
G1 X206.764 Y31.787 E.90749
G1 X206.812 Y31.81 E.00167
M204 S1000
;WIPE_START
G1 F8640
G1 X206.866 Y31.836 E-.01384
G1 X206.911 Y31.858 E-.01157
G1 X206.952 Y31.976 E-.02884
G1 X206.952 Y35.206 E-.74575
;WIPE_END
G1 Z.6 F720
G1 X174.595 Y69.364 F10800
G1 Z.2 F720
G1 E.8 F2100
M204 S800
;TYPE:Perimeter
G1 F1200
G1 X174.536 Y69.395 E.00209
G1 X173.832 Y69.662 E.02361
G1 X173.523 Y69.738 E.00998
G1 X172.776 Y69.829 E.02359
G1 X172.458 Y69.829 E.00997
G1 X171.711 Y69.738 E.02359
G1 X171.402 Y69.662 E.00998
G1 X170.698 Y69.395 E.02361
G1 X170.417 Y69.247 E.00996
G1 X169.797 Y68.82 E.0236
G1 X169.559 Y68.609 E.00997
G1 X169.06 Y68.046 E.02359
G1 X168.879 Y67.784 E.00998
G1 X168.529 Y67.117 E.02362
G1 X168.417 Y66.82 E.00995
G1 X168.237 Y66.089 E.0236
G1 X168.198 Y65.773 E.00998
G1 X168.198 Y65.021 E.02358
G1 X168.237 Y64.705 E.00998
G1 X168.417 Y63.974 E.0236
G1 X168.529 Y63.677 E.00995
G1 X168.879 Y63.01 E.02362
G1 X169.06 Y62.748 E.00998
G1 X169.559 Y62.185 E.02359
G1 X169.797 Y61.974 E.00997
G1 X170.417 Y61.547 E.0236
G1 X170.698 Y61.399 E.00996
G1 X171.402 Y61.132 E.02361
G1 X171.708 Y61.056 E.00989
G1 X172.432 Y60.967 E.02287
G1 X172.745 Y60.966 E.00981
G1 X173.516 Y61.055 E.02433
G1 X173.832 Y61.132 E.0102
G1 X174.536 Y61.399 E.02361
G1 X174.818 Y61.547 E.00999
G1 X175.437 Y61.974 E.02358
G1 X175.675 Y62.185 E.00997
G1 X176.174 Y62.748 E.02359
G1 X176.355 Y63.01 E.00998
G1 X176.705 Y63.677 E.02362
G1 X176.818 Y63.974 E.00996
G1 X176.998 Y64.705 E.0236
G1 X177.036 Y65.021 E.00998
G1 X177.036 Y65.773 E.02358
G1 X176.998 Y66.089 E.00998
G1 X176.818 Y66.82 E.0236
G1 X176.705 Y67.117 E.00996
G1 X176.355 Y67.784 E.02362
G1 X176.174 Y68.046 E.00998
G1 X175.675 Y68.609 E.02359
G1 X175.437 Y68.82 E.00997
G1 X174.818 Y69.247 E.02358
G1 X174.648 Y69.336 E.00602
M204 S1000
G1 X174.648 Y69.336 F10800
G1 X174.434 Y69.007
M204 S800
G1 F1200
G1 X173.698 Y69.31 E.02496
G1 X172.731 Y69.455 E.03066
G1 X171.756 Y69.364 E.0307
G1 X170.832 Y69.043 E.03067
G1 X170.011 Y68.51 E.03069
G1 X169.342 Y67.796 E.03068
G1 X168.863 Y66.942 E.0307
G1 X168.603 Y65.999 E.03067
G1 X168.575 Y65.773 E.00714
G1 X168.575 Y65.021 E.02358
G1 X168.783 Y64.064 E.03071
G1 X169.213 Y63.185 E.03068
G1 X169.841 Y62.435 E.03067
G1 X170.631 Y61.857 E.03069
G1 X171.536 Y61.484 E.03069
G1 X172.478 Y61.341 E.02987
G1 X173.473 Y61.429 E.03132
G1 X174.237 Y61.689 E.0253
G1 X174.603 Y61.857 E.01263
G1 X175.223 Y62.284 E.0236
G1 X175.892 Y62.998 E.03068
G1 X176.371 Y63.852 E.0307
G1 X176.631 Y64.795 E.03067
G1 X176.659 Y65.773 E.03068
G1 X176.451 Y66.73 E.03071
G1 X176.021 Y67.609 E.03068
G1 X175.393 Y68.359 E.03067
G1 X174.603 Y68.937 E.03069
G1 X174.489 Y68.984 E.00387
M204 S1000
G1 X174.489 Y68.984 F10800
G1 X174.282 Y68.67
M204 S800
G1 F1200
G1 X173.565 Y68.957 E.02422
G1 X172.685 Y69.08 E.02786
G1 X171.802 Y68.99 E.02783
G1 X170.966 Y68.69 E.02785
G1 X170.226 Y68.199 E.02784
G1 X169.624 Y67.546 E.02785
G1 X169.197 Y66.767 E.02785
G1 X168.969 Y65.909 E.02784
G1 X168.952 Y65.773 E.0043
G1 X168.952 Y65.021 E.02358
G1 X169.149 Y64.155 E.02785
G1 X169.547 Y63.361 E.02785
G1 X170.124 Y62.685 E.02787
G1 X170.845 Y62.167 E.02784
G1 X171.669 Y61.837 E.02783
G1 X172.524 Y61.715 E.02708
G1 X173.429 Y61.804 E.02851
G1 X174.103 Y62.041 E.0224
G1 X174.389 Y62.167 E.0098
G1 X175.009 Y62.595 E.02362
G1 X175.61 Y63.249 E.02785
G1 X176.037 Y64.027 E.02783
G1 X176.265 Y64.885 E.02784
G1 X176.282 Y65.773 E.02785
G1 X176.085 Y66.639 E.02785
G1 X175.687 Y67.433 E.02785
G1 X175.111 Y68.109 E.02785
G1 X174.389 Y68.627 E.02786
G1 X174.338 Y68.647 E.00172
M204 S1000
G1 X174.338 Y68.647 F10800
G1 X174.131 Y68.334
M204 S800
;TYPE:External perimeter
G1 F1200
G1 X173.431 Y68.604 E.02352
G1 X172.64 Y68.706 E.02501
G1 X171.847 Y68.615 E.02503
G1 X171.099 Y68.338 E.02501
G1 X170.44 Y67.889 E.025
G1 X169.907 Y67.295 E.02502
G1 X169.531 Y66.592 E.025
G1 X169.329 Y65.773 E.02645
G1 X169.329 Y65.021 E.02358
G1 X169.515 Y64.245 E.02502
G1 X169.881 Y63.536 E.02502
G1 X170.406 Y62.935 E.02502
G1 X171.059 Y62.478 E.02499
G1 X171.803 Y62.19 E.02501
G1 X172.57 Y62.089 E.02426
G1 X173.386 Y62.179 E.02574
G1 X174.175 Y62.478 E.02646
G1 X174.794 Y62.905 E.02358
G1 X175.327 Y63.499 E.02502
G1 X175.703 Y64.202 E.025
G1 X175.899 Y64.976 E.02503
G1 X175.905 Y65.773 E.02499
G1 X175.719 Y66.549 E.02502
G1 X175.353 Y67.258 E.02502
G1 X174.828 Y67.859 E.02502
G1 X174.185 Y68.309 E.02461
M204 S1000
;WIPE_START
G1 F8640
G1 X174.131 Y68.334 E-.01374
G1 X173.431 Y68.604 E-.17324
G1 X172.64 Y68.706 E-.18416
G1 X171.847 Y68.615 E-.18431
G1 X171.099 Y68.338 E-.18418
G1 X170.883 Y68.191 E-.06037
;WIPE_END
G1 Z.6 F720
G1 X155.962 Y67.369 F10800
G1 Z.2 F720
G1 E.8 F2100
M204 S800
;TYPE:Perimeter
G1 F1200
G1 X155.829 Y67.117 E.00893
G1 X155.717 Y66.82 E.00995
G1 X155.537 Y66.089 E.0236
G1 X155.498 Y65.636 E.01426
G1 X155.498 Y65.021 E.01928
G1 X155.537 Y64.705 E.00998
G1 X155.717 Y63.974 E.0236
G1 X155.829 Y63.677 E.00995
G1 X156.179 Y63.01 E.02362
G1 X156.36 Y62.748 E.00998
G1 X156.859 Y62.185 E.02359
G1 X157.097 Y61.974 E.00997
G1 X157.717 Y61.547 E.0236
G1 X157.998 Y61.399 E.00996
G1 X158.702 Y61.132 E.02361
G1 X159.008 Y61.056 E.00989
G1 X159.732 Y60.967 E.02287
G1 X160.045 Y60.966 E.00981
G1 X160.816 Y61.055 E.02433
G1 X161.132 Y61.132 E.0102
G1 X161.836 Y61.399 E.02361
G1 X162.118 Y61.547 E.00999
G1 X162.737 Y61.974 E.02358
G1 X162.975 Y62.185 E.00997
G1 X163.474 Y62.748 E.02359
G1 X163.655 Y63.01 E.00998
G1 X164.005 Y63.677 E.02362
G1 X164.118 Y63.974 E.00996
G1 X164.298 Y64.705 E.0236
G1 X164.336 Y65.021 E.00998
G1 X164.336 Y65.773 E.02358
G1 X164.298 Y66.089 E.00998
G1 X164.118 Y66.82 E.0236
G1 X164.005 Y67.117 E.00996
G1 X163.655 Y67.784 E.02362
G1 X163.474 Y68.046 E.00998
G1 X162.975 Y68.609 E.02359
G1 X162.737 Y68.82 E.00997
G1 X162.118 Y69.247 E.02358
G1 X161.836 Y69.395 E.00999
G1 X161.132 Y69.662 E.02361
G1 X160.823 Y69.738 E.00998
G1 X160.076 Y69.829 E.02359
G1 X159.758 Y69.829 E.00997
G1 X159.011 Y69.738 E.02359
G1 X158.702 Y69.662 E.00998
G1 X157.998 Y69.395 E.02361
G1 X157.719 Y69.249 E.00987
G1 X157.118 Y68.836 E.02286
G1 X156.883 Y68.629 E.00982
G1 X156.365 Y68.051 E.02434
G1 X156.179 Y67.784 E.0102
G1 X155.99 Y67.422 E.0128
M204 S1000
G1 X155.99 Y67.422 F10800
G1 X156.315 Y67.211
M204 S800
G1 F1200
G1 X156.163 Y66.942 E.00969
G1 X155.903 Y65.999 E.03067
G1 X155.875 Y65.021 E.03068
G1 X156.083 Y64.064 E.03071
G1 X156.513 Y63.185 E.03068
G1 X157.141 Y62.435 E.03067
G1 X157.931 Y61.857 E.03069
G1 X158.836 Y61.484 E.03069
G1 X159.778 Y61.341 E.02987
G1 X160.773 Y61.429 E.03132
G1 X161.702 Y61.751 E.03083
G1 X162.523 Y62.284 E.03069
G1 X163.192 Y62.998 E.03068
G1 X163.671 Y63.852 E.0307
G1 X163.931 Y64.795 E.03067
G1 X163.959 Y65.773 E.03068
G1 X163.751 Y66.73 E.03071
G1 X163.321 Y67.609 E.03068
G1 X162.693 Y68.359 E.03067
G1 X161.903 Y68.937 E.03069
G1 X160.998 Y69.31 E.03069
G1 X160.031 Y69.455 E.03066
G1 X159.056 Y69.364 E.0307
G1 X158.132 Y69.043 E.03067
G1 X157.332 Y68.525 E.02988
G1 X156.646 Y67.799 E.03132
G1 X156.344 Y67.263 E.01929
M204 S1000
G1 X156.344 Y67.263 F10800
G1 X156.657 Y67.057
M204 S800
G1 F1200
G1 X156.497 Y66.767 E.01038
G1 X156.269 Y65.909 E.02784
G1 X156.252 Y65.021 E.02785
G1 X156.449 Y64.155 E.02785
G1 X156.847 Y63.361 E.02785
G1 X157.424 Y62.685 E.02787
G1 X158.145 Y62.167 E.02784
G1 X158.969 Y61.837 E.02783
G1 X159.824 Y61.715 E.02708
G1 X160.729 Y61.804 E.02851
G1 X161.568 Y62.104 E.02794
G1 X162.309 Y62.595 E.02787
G1 X162.91 Y63.249 E.02785
G1 X163.337 Y64.027 E.02783
G1 X163.565 Y64.885 E.02784
G1 X163.582 Y65.773 E.02785
G1 X163.385 Y66.639 E.02785
G1 X162.987 Y67.433 E.02785
G1 X162.411 Y68.109 E.02785
G1 X161.689 Y68.627 E.02786
G1 X160.865 Y68.957 E.02783
G1 X159.985 Y69.08 E.02786
G1 X159.102 Y68.99 E.02783
G1 X158.266 Y68.69 E.02785
G1 X157.545 Y68.215 E.02707
G1 X156.927 Y67.548 E.02851
G1 X156.685 Y67.109 E.01572
M204 S1000
G1 X156.685 Y67.109 F10800
G1 X156.997 Y66.903
M204 S800
;TYPE:External perimeter
G1 F1200
G1 X156.831 Y66.592 E.01105
G1 X156.635 Y65.818 E.02503
G1 X156.629 Y65.021 E.02499
G1 X156.815 Y64.245 E.02502
G1 X157.181 Y63.536 E.02502
G1 X157.706 Y62.935 E.02502
G1 X158.359 Y62.478 E.02499
G1 X159.103 Y62.19 E.02501
G1 X159.87 Y62.089 E.02426
G1 X160.686 Y62.179 E.02574
G1 X161.435 Y62.456 E.02504
G1 X162.094 Y62.905 E.025
G1 X162.627 Y63.499 E.02502
G1 X163.003 Y64.202 E.025
G1 X163.199 Y64.976 E.02503
G1 X163.205 Y65.773 E.02499
G1 X163.019 Y66.549 E.02502
G1 X162.653 Y67.258 E.02502
G1 X162.128 Y67.859 E.02502
G1 X161.475 Y68.316 E.02499
G1 X160.731 Y68.604 E.02501
G1 X159.94 Y68.706 E.02501
G1 X159.147 Y68.615 E.02503
G1 X158.399 Y68.338 E.02501
G1 X157.759 Y67.904 E.02425
G1 X157.207 Y67.296 E.02575
G1 X157.026 Y66.956 E.01208
M204 S1000
;WIPE_START
G1 F8640
G1 X156.997 Y66.903 E-.01395
G1 X156.831 Y66.592 E-.0814
G1 X156.635 Y65.818 E-.18436
G1 X156.629 Y65.021 E-.18403
G1 X156.815 Y64.245 E-.18426
G1 X157.117 Y63.66 E-.152
;WIPE_END
G1 Z.6 F720
G1 X189.494 Y63.912 F10800
G1 Z.2 F720
G1 E.8 F2100
M204 S800
;TYPE:Perimeter
G1 F1200
G1 X189.518 Y63.974 E.00208
G1 X189.698 Y64.705 E.0236
G1 X189.736 Y65.021 E.00998
G1 X189.736 Y65.773 E.02358
G1 X189.698 Y66.089 E.00998
G1 X189.518 Y66.82 E.0236
G1 X189.405 Y67.117 E.00996
G1 X189.055 Y67.784 E.02362
G1 X188.874 Y68.046 E.00998
G1 X188.375 Y68.609 E.02359
G1 X188.137 Y68.82 E.00997
G1 X187.518 Y69.247 E.02358
G1 X187.236 Y69.395 E.00999
G1 X186.532 Y69.662 E.02361
G1 X186.223 Y69.738 E.00998
G1 X185.476 Y69.829 E.02359
G1 X185.158 Y69.829 E.00997
G1 X184.411 Y69.738 E.02359
G1 X184.104 Y69.663 E.00991
G1 X183.422 Y69.406 E.02285
G1 X183.144 Y69.261 E.00983
G1 X182.503 Y68.824 E.02432
G1 X182.259 Y68.609 E.0102
G1 X181.76 Y68.046 E.02359
G1 X181.579 Y67.784 E.00998
G1 X181.229 Y67.117 E.02362
G1 X181.117 Y66.82 E.00995
G1 X180.937 Y66.089 E.0236
G1 X180.898 Y65.773 E.00998
G1 X180.898 Y65.021 E.02358
G1 X180.937 Y64.705 E.00998
G1 X181.117 Y63.974 E.0236
G1 X181.229 Y63.677 E.00995
G1 X181.579 Y63.01 E.02362
G1 X181.76 Y62.748 E.00998
G1 X182.259 Y62.185 E.02359
G1 X182.653 Y61.867 E.01588
G1 X183.117 Y61.547 E.01767
G1 X183.398 Y61.399 E.00996
G1 X184.102 Y61.132 E.02361
G1 X184.408 Y61.056 E.00989
G1 X185.132 Y60.967 E.02287
G1 X185.445 Y60.966 E.00981
G1 X186.216 Y61.055 E.02433
G1 X186.532 Y61.132 E.0102
G1 X187.236 Y61.399 E.02361
G1 X187.518 Y61.547 E.00999
G1 X188.137 Y61.974 E.02358
G1 X188.375 Y62.185 E.00997
G1 X188.874 Y62.748 E.02359
G1 X189.055 Y63.01 E.00998
G1 X189.405 Y63.677 E.02362
G1 X189.473 Y63.856 E.006
M204 S1000
G1 X189.473 Y63.856 F10800
G1 X189.12 Y64.029
M204 S800
G1 F1200
G1 X189.331 Y64.795 E.02491
G1 X189.359 Y65.773 E.03068
G1 X189.151 Y66.73 E.03071
G1 X188.721 Y67.609 E.03068
G1 X188.093 Y68.359 E.03067
G1 X187.303 Y68.937 E.03069
G1 X186.398 Y69.31 E.03069
G1 X185.431 Y69.455 E.03066
G1 X184.456 Y69.364 E.0307
G1 X184.237 Y69.31 E.00707
G1 X183.555 Y69.053 E.02285
G1 X182.716 Y68.513 E.03128
G1 X182.042 Y67.796 E.03085
G1 X181.563 Y66.942 E.0307
G1 X181.303 Y65.999 E.03067
G1 X181.275 Y65.021 E.03068
G1 X181.483 Y64.064 E.03071
G1 X181.913 Y63.185 E.03068
G1 X182.541 Y62.435 E.03067
G1 X183.331 Y61.857 E.03069
G1 X184.236 Y61.484 E.03069
G1 X185.178 Y61.341 E.02987
G1 X186.173 Y61.429 E.03132
G1 X187.102 Y61.751 E.03083
G1 X187.923 Y62.284 E.03069
G1 X188.592 Y62.998 E.03068
G1 X189.071 Y63.852 E.0307
G1 X189.104 Y63.971 E.00387
M204 S1000
G1 X189.104 Y63.971 F10800
G1 X188.767 Y64.139
M204 S800
G1 F1200
G1 X188.965 Y64.885 E.0242
G1 X188.982 Y65.773 E.02785
G1 X188.785 Y66.639 E.02785
G1 X188.387 Y67.433 E.02785
G1 X187.811 Y68.109 E.02785
G1 X187.089 Y68.627 E.02786
G1 X186.265 Y68.957 E.02783
G1 X185.385 Y69.08 E.02786
G1 X184.502 Y68.99 E.02783
G1 X184.37 Y68.957 E.00427
G1 X183.688 Y68.7 E.02285
