; generated by PrusaSlicer 2.8.0+win64 on 2024-10-24 at 18:30:19 UTC


;
;
; 

; external perimeters extrusion width = 0.60mm
; perimeters extrusion width = 0.50mm
; infill extrusion width = 0.50mm
; solid infill extrusion width = 0.50mm
; top infill extrusion width = 0.45mm
; first layer extrusion width = 0.42mm

M73 P0 R104
M73 Q0 S105
M201 X1000 Y1000 Z200 E5000 ; sets maximum accelerations, mm/sec^2
M203 X200 Y200 Z12 E120 ; sets maximum feedrates, mm / sec
M204 S1250 T1250 ; sets acceleration (S) and retract acceleration (R), mm/sec^2
M205 X8.00 Y8.00 Z0.40 E4.50 ; sets the jerk limits, mm/sec
M205 S0 T0 ; sets the minimum extruding and travel feed rate, mm/sec

; printing object temp_box_top.stl id:0 copy 0
; stop printing object temp_box_top.stl id:0 copy 0

;TYPE:Custom
M862.3 P "MK3S" ; printer model check
M862.1 P0.4 ; nozzle diameter check
M115 U3.13.3 ; tell printer latest fw version
G90 ; use absolute coordinates
M83 ; extruder relative mode
M104 S210 ; set extruder temp
M140 S67 ; set bed temp
M190 S67 ; wait for bed temp
M109 S210 ; wait for extruder temp
G28 W ; home all without mesh bed level
G80 X131.237 Y19.037 W85.5 H59.5 ; mesh bed levelling

G1 Z0.2 F720
G1 Y-3 F1000 ; go outside print area
G92 E0
G1 X60 E9 F1000 ; intro line
G1 X100 E12.5 F1000 ; intro line

G92 E0
M221 S95

; Don't change E values below. Excessive value can damage the printer.

M907 E538 ; set extruder motor current
G21 ; set units to millimeters
G90 ; use absolute coordinates
M83 ; use relative distances for extrusion
M900 K0.05 ; Filament gcode LA 1.5
M900 K30 ; Filament gcode LA 1.0
M107
;LAYER_CHANGE
;Z:0.2
;HEIGHT:0.2
G1 E-.8 F2100
G1 Z.6 F720
; printing object temp_box_top.stl id:0 copy 0
G1 X178.136 Y31.968 F10800
G1 Z.2 F720
G1 E.8 F2100
M204 S800
;TYPE:Perimeter
;WIDTH:0.419999
G1 F1200
G1 X178.208 Y31.905 E.003
G1 X178.253 Y31.838 E.00253
G1 X178.492 Y31.122 E.02367
G1 X178.725 Y30.73 E.0143
G1 X179.151 Y30.246 E.02022
G1 X179.406 Y30.061 E.00988
G1 X179.864 Y29.804 E.01647
G1 X180.285 Y29.655 E.014
G1 X180.917 Y29.557 E.02005
G1 X181.536 Y29.611 E.01948
G1 X182.17 Y29.83 E.02103
G1 X182.549 Y30.045 E.01366
G1 X183.06 Y30.478 E.021
G1 X183.484 Y31.125 E.02425
G1 X183.654 Y31.559 E.01461
G1 X183.675 Y31.667 E.00345
G1 X205.764 Y31.656 E.69258
G1 X206.091 Y31.697 E.01033
G1 X206.517 Y31.892 E.01469
G1 X206.76 Y32.111 E.01026
G1 X206.957 Y32.413 E.01131
G1 X207.069 Y32.78 E.01203
G1 X207.083 Y32.976 E.00616
G1 X207.083 Y47.718 E.46222
G1 X207.022 Y48.115 E.01259
G1 X206.855 Y48.46 E.01202
G1 X206.62 Y48.723 E.01106
G1 X206.228 Y48.954 E.01427
G1 X205.869 Y49.034 E.01153
G1 X205.764 Y49.038 E.00329
G1 X178.821 Y49.038 E.84478
G1 X178.367 Y48.958 E.01445
G1 X178.216 Y48.892 E.00517
G1 X177.858 Y48.621 E.01408
G1 X177.621 Y48.269 E.01331
G1 X177.509 Y47.862 E.01324
G1 X177.512 Y33.662 E.44523
G1 X177.575 Y32.919 E.02338
G1 X177.658 Y32.561 E.01152
G1 X177.868 Y32.199 E.01312
G1 X178.091 Y32.007 E.00923
M204 S1000
G1 X178.091 Y32.007 F10800
G1 X178.352 Y32.267
M204 S800
G1 F1200
G1 X178.403 Y32.228 E.00201
G1 X178.589 Y32.145 E.00639
G1 X178.678 Y31.695 E.01438
G1 X178.859 Y31.22 E.01594
G1 X179.011 Y30.976 E.00901
G1 X179.408 Y30.522 E.01891
G1 X180.049 Y30.133 E.02351
G1 X180.349 Y30.026 E.00999
G1 X180.933 Y29.934 E.01854
G1 X181.454 Y29.979 E.0164
G1 X182.041 Y30.184 E.0195
G1 X182.312 Y30.338 E.00977
G1 X182.781 Y30.732 E.01921
G1 X183.163 Y31.322 E.02204
G1 X183.284 Y31.632 E.01043
G1 X183.369 Y32.065 E.01384
G1 X183.872 Y32.034 E.0158
G1 X205.764 Y32.033 E.68641
G1 X206.108 Y32.098 E.01098
G1 X206.391 Y32.272 E.01042
G1 X206.616 Y32.573 E.01178
G1 X206.696 Y32.836 E.00862
G1 X206.706 Y32.976 E.0044
G1 X206.706 Y47.718 E.46222
G1 X206.663 Y48.002 E.00901
G1 X206.543 Y48.248 E.00858
G1 X206.282 Y48.505 E.01148
G1 X206.005 Y48.63 E.00953
G1 X205.764 Y48.661 E.00762
G1 X178.821 Y48.661 E.84478
G1 X178.497 Y48.604 E.01031
G1 X178.389 Y48.556 E.00371
G1 X178.097 Y48.322 E.01173
G1 X177.926 Y48.017 E.01096
G1 X177.878 Y47.718 E.00949
G1 X177.879 Y34.183 E.42438
G1 X177.889 Y33.67 E.01609
G1 X177.95 Y32.952 E.02259
G1 X178.04 Y32.627 E.01057
G1 X178.24 Y32.352 E.01066
G1 X178.304 Y32.304 E.00251
M204 S1000
G1 X178.304 Y32.304 F10800
G1 X178.557 Y32.592
M204 S800
G1 F1200
G1 X178.598 Y32.551 E.00182
G1 X178.819 Y32.475 E.00733
G1 X178.977 Y32.468 E.00496
G1 X178.959 Y32.223 E.0077
G1 X179.03 Y31.829 E.01255
G1 X179.209 Y31.361 E.01571
G1 X179.621 Y30.844 E.02073
G1 X179.774 Y30.719 E.00619
G1 X180.233 Y30.462 E.01649
G1 X180.413 Y30.398 E.00599
G1 X180.949 Y30.311 E.01703
G1 X181.444 Y30.368 E.01562
G1 X181.971 Y30.564 E.01763
G1 X182.44 Y30.927 E.0186
G1 X182.566 Y31.071 E.006
G1 X182.841 Y31.519 E.01648
G1 X182.914 Y31.705 E.00626
G1 X183.011 Y32.196 E.01569
G1 X182.998 Y32.468 E.00854
G1 X183.835 Y32.412 E.0263
G1 X205.764 Y32.41 E.68757
G1 X206.032 Y32.478 E.00867
G1 X206.237 Y32.665 E.0087
G1 X206.323 Y32.892 E.00761
G1 X206.329 Y32.976 E.00264
G1 X206.329 Y47.718 E.46222
G1 X206.272 Y47.966 E.00798
G1 X206.131 Y48.149 E.00724
G1 X205.909 Y48.265 E.00785
G1 X205.764 Y48.284 E.00459
G1 X178.821 Y48.284 E.84478
G1 X178.562 Y48.221 E.00836
G1 X178.367 Y48.056 E.00801
G1 X178.261 Y47.803 E.0086
G1 X178.266 Y33.677 E.44291
G1 X178.326 Y32.986 E.02175
G1 X178.402 Y32.749 E.0078
G1 X178.515 Y32.635 E.00503
M204 S1000
G1 X178.515 Y32.635 F10800
G1 X178.823 Y32.875
M204 S800
;TYPE:External perimeter
G1 F1200
G1 X178.916 Y32.849 E.00303
G1 X179.4 Y32.983 E.01575
G1 X179.512 Y32.962 E.00357
G1 X179.411 Y32.802 E.00593
G1 X179.332 Y32.278 E.01662
G1 X179.383 Y31.963 E.01001
G1 X179.571 Y31.482 E.01619
G1 X179.907 Y31.089 E.01621
G1 X180.417 Y30.791 E.01852
G1 X180.941 Y30.69 E.01673
G1 X181.315 Y30.722 E.01177
G1 X181.802 Y30.901 E.01627
G1 X182.203 Y31.22 E.01607
G1 X182.52 Y31.716 E.01846
G1 X182.641 Y32.269 E.01775
G1 X182.565 Y32.801 E.01685
G1 X182.465 Y32.961 E.00592
G1 X183.022 Y32.844 E.01785
G1 X183.86 Y32.788 E.02633
G1 X205.764 Y32.787 E.68678
G1 X205.906 Y32.852 E.0049
G1 X205.952 Y32.976 E.00415
G1 X205.952 Y47.718 E.46222
G1 X205.886 Y47.862 E.00497
G1 X205.764 Y47.907 E.00408
G1 X178.818 Y47.907 E.84487
G1 X178.734 Y47.886 E.00271
G1 X178.636 Y47.757 E.00508
G1 X178.632 Y46.96 E.02499
G1 X178.633 Y34.183 E.40061
G1 X178.644 Y33.672 E.01603
G1 X178.702 Y33.019 E.02055
G1 X178.768 Y32.894 E.00443
M204 S1000
;WIPE_START
G1 F8640
G1 X178.823 Y32.875 E-.01344
G1 X178.916 Y32.849 E-.0223
G1 X179.4 Y32.983 E-.11596
G1 X179.512 Y32.962 E-.02631
G1 X179.411 Y32.802 E-.04369
G1 X179.332 Y32.278 E-.12236
G1 X179.383 Y31.963 E-.07368
G1 X179.571 Y31.482 E-.11925
G1 X179.907 Y31.089 E-.11939
G1 X180.417 Y30.791 E-.13639
G1 X180.448 Y30.785 E-.00723
;WIPE_END
G1 Z.6 F720
G1 X181.949 Y68.259 F10800
G1 Z.2 F720
G1 E.8 F2100
M204 S800
;TYPE:Perimeter
G1 F1200
G1 X181.76 Y68.046 E.00893
G1 X181.579 Y67.784 E.00998
G1 X181.229 Y67.117 E.02362
G1 X181.117 Y66.82 E.00995
G1 X180.937 Y66.089 E.0236
G1 X180.898 Y65.773 E.00998
G1 X180.898 Y65.021 E.02358
G1 X180.937 Y64.705 E.00998
G1 X181.117 Y63.974 E.0236
G1 X181.229 Y63.677 E.00995
G1 X181.579 Y63.01 E.02362
G1 X181.76 Y62.748 E.00998
G1 X182.259 Y62.185 E.02359
G1 X182.497 Y61.974 E.00997
G1 X183.117 Y61.547 E.0236
G1 X183.398 Y61.399 E.00996
G1 X184.102 Y61.132 E.02361
G1 X184.409 Y61.056 E.00992
G1 X185.135 Y60.967 E.02293
G1 X185.449 Y60.965 E.00985
G1 X186.217 Y61.055 E.02424
G1 X186.532 Y61.132 E.01017
G1 X187.236 Y61.399 E.02361
G1 X187.518 Y61.547 E.00999
G1 X188.137 Y61.974 E.02358
G1 X188.375 Y62.185 E.00997
G1 X188.874 Y62.748 E.02359
G1 X189.055 Y63.01 E.00998
G1 X189.405 Y63.677 E.02362
G1 X189.518 Y63.974 E.00996
G1 X189.698 Y64.705 E.0236
G1 X189.736 Y65.021 E.00998
G1 X189.736 Y65.773 E.02358
G1 X189.698 Y66.089 E.00998
G1 X189.518 Y66.82 E.0236
G1 X189.405 Y67.117 E.00996
G1 X189.055 Y67.784 E.02362
G1 X188.874 Y68.046 E.00998
G1 X188.375 Y68.609 E.02359
G1 X188.137 Y68.82 E.00997
G1 X187.518 Y69.247 E.02358
G1 X187.236 Y69.395 E.00999
G1 X186.532 Y69.662 E.02361
G1 X186.223 Y69.738 E.00998
G1 X185.476 Y69.829 E.02359
G1 X185.158 Y69.829 E.00997
G1 X184.411 Y69.738 E.02359
G1 X184.102 Y69.662 E.00998
G1 X183.398 Y69.395 E.02361
G1 X183.117 Y69.247 E.00996
G1 X182.497 Y68.82 E.0236
G1 X182.259 Y68.609 E.00997
G1 X181.988 Y68.304 E.01279
M204 S1000
G1 X181.988 Y68.304 F10800
G1 X182.253 Y68.02
M204 S800
G1 F1200
G1 X182.042 Y67.796 E.00965
G1 X181.563 Y66.942 E.0307
G1 X181.303 Y65.999 E.03067
G1 X181.275 Y65.021 E.03068
G1 X181.483 Y64.064 E.03071
G1 X181.913 Y63.185 E.03068
G1 X182.541 Y62.435 E.03067
G1 X183.124 Y62 E.02281
G1 X183.532 Y61.751 E.01499
G1 X184.236 Y61.484 E.02361
G1 X185.181 Y61.341 E.02997
G1 X186.173 Y61.429 E.03123
G1 X187.102 Y61.751 E.03083
G1 X187.923 Y62.284 E.03069
G1 X188.592 Y62.998 E.03068
G1 X189.071 Y63.852 E.0307
G1 X189.331 Y64.795 E.03067
G1 X189.359 Y65.773 E.03068
G1 X189.151 Y66.73 E.03071
G1 X188.721 Y67.609 E.03068
G1 X188.093 Y68.359 E.03067
G1 X187.303 Y68.937 E.03069
G1 X186.398 Y69.31 E.03069
G1 X185.431 Y69.455 E.03066
G1 X184.456 Y69.364 E.0307
G1 X183.532 Y69.043 E.03067
G1 X182.711 Y68.51 E.03069
G1 X182.294 Y68.064 E.01914
M204 S1000
G1 X182.294 Y68.064 F10800
G1 X182.548 Y67.789
M204 S800
G1 F1200
G1 X182.324 Y67.546 E.01036
G1 X181.897 Y66.767 E.02785
G1 X181.669 Y65.909 E.02784
G1 X181.652 Y65.021 E.02785
G1 X181.849 Y64.155 E.02785
G1 X182.247 Y63.361 E.02785
G1 X182.824 Y62.685 E.02787
G1 X183.338 Y62.31 E.01995
G1 X183.666 Y62.104 E.01214
G1 X184.369 Y61.837 E.02358
G1 X185.227 Y61.715 E.02717
G1 X186.13 Y61.804 E.02845
G1 X186.968 Y62.104 E.02791
G1 X187.709 Y62.595 E.02787
G1 X188.31 Y63.249 E.02785
G1 X188.737 Y64.027 E.02783
G1 X188.965 Y64.885 E.02784
G1 X188.982 Y65.773 E.02785
G1 X188.785 Y66.639 E.02785
G1 X188.387 Y67.433 E.02785
G1 X187.811 Y68.109 E.02785
G1 X187.089 Y68.627 E.02786
G1 X186.265 Y68.957 E.02783
G1 X185.385 Y69.08 E.02786
G1 X184.502 Y68.99 E.02783
G1 X183.666 Y68.69 E.02785
G1 X182.926 Y68.199 E.02784
G1 X182.589 Y67.833 E.0156
M204 S1000
G1 X182.589 Y67.833 F10800
G1 X182.843 Y67.558
M204 S800
;TYPE:External perimeter
G1 F1200
G1 X182.607 Y67.295 E.01108
G1 X182.231 Y66.592 E.025
G1 X182.035 Y65.818 E.02503
G1 X182.029 Y65.021 E.02499
G1 X182.215 Y64.245 E.02502
G1 X182.581 Y63.536 E.02502
G1 X183.106 Y62.935 E.02502
G1 X183.799 Y62.456 E.02641
G1 X184.503 Y62.19 E.0236
G1 X185.273 Y62.089 E.02435
G1 X186.086 Y62.179 E.02565
G1 X186.835 Y62.456 E.02504
G1 X187.494 Y62.905 E.025
G1 X188.027 Y63.499 E.02502
G1 X188.403 Y64.202 E.025
G1 X188.599 Y64.976 E.02503
G1 X188.605 Y65.773 E.02499
G1 X188.419 Y66.549 E.02502
G1 X188.053 Y67.258 E.02502
G1 X187.528 Y67.859 E.02502
G1 X186.875 Y68.316 E.02499
G1 X186.131 Y68.604 E.02501
G1 X185.34 Y68.706 E.02501
G1 X184.547 Y68.615 E.02503
G1 X183.799 Y68.338 E.02501
G1 X183.14 Y67.889 E.025
G1 X182.883 Y67.603 E.01206
M204 S1000
;WIPE_START
G1 F8640
G1 X182.843 Y67.558 E-.0139
G1 X182.607 Y67.295 E-.08159
G1 X182.231 Y66.592 E-.18408
G1 X182.035 Y65.818 E-.18436
G1 X182.029 Y65.021 E-.18403
G1 X182.182 Y64.381 E-.15204
;WIPE_END
G1 Z.6 F720
G1 X176.93 Y64.429 F10800
G1 Z.2 F720
M73 P0 R103
G1 E.8 F2100
M204 S800
;TYPE:Perimeter
G1 F1200
G1 X176.998 Y64.705 E.00891
G1 X177.036 Y65.021 E.00998
G1 X177.036 Y65.773 E.02358
G1 X176.998 Y66.089 E.00998
G1 X176.818 Y66.82 E.0236
G1 X176.705 Y67.117 E.00996
G1 X176.355 Y67.784 E.02362
G1 X176.174 Y68.046 E.00998
G1 X175.675 Y68.609 E.02359
G1 X175.437 Y68.82 E.00997
G1 X174.818 Y69.247 E.02358
G1 X174.536 Y69.395 E.00999
G1 X173.832 Y69.662 E.02361
G1 X173.523 Y69.738 E.00998
G1 X172.776 Y69.829 E.02359
G1 X172.46 Y69.829 E.00991
G1 X171.734 Y69.742 E.02293
G1 X171.429 Y69.668 E.00984
G1 X170.704 Y69.398 E.02426
G1 X170.417 Y69.247 E.01017
G1 X169.797 Y68.82 E.0236
G1 X169.559 Y68.609 E.00997
G1 X169.06 Y68.046 E.02359
G1 X168.879 Y67.784 E.00998
G1 X168.529 Y67.117 E.02362
G1 X168.417 Y66.82 E.00995
G1 X168.237 Y66.089 E.0236
G1 X168.198 Y65.773 E.00998
G1 X168.198 Y65.021 E.02358
G1 X168.237 Y64.705 E.00998
G1 X168.417 Y63.974 E.0236
G1 X168.529 Y63.677 E.00995
G1 X168.879 Y63.01 E.02362
G1 X169.06 Y62.748 E.00998
G1 X169.559 Y62.185 E.02359
G1 X169.797 Y61.974 E.00997
G1 X170.417 Y61.547 E.0236
G1 X170.698 Y61.399 E.00996
G1 X171.402 Y61.132 E.02361
G1 X171.709 Y61.056 E.00992
G1 X172.435 Y60.967 E.02293
G1 X172.749 Y60.965 E.00985
G1 X173.517 Y61.055 E.02424
G1 X173.832 Y61.132 E.01017
G1 X174.536 Y61.399 E.02361
G1 X175.025 Y61.69 E.01784
G1 X175.437 Y61.974 E.01569
G1 X175.675 Y62.185 E.00997
G1 X176.174 Y62.748 E.02359
G1 X176.355 Y63.01 E.00998
G1 X176.705 Y63.677 E.02362
G1 X176.818 Y63.974 E.00996
G1 X176.915 Y64.37 E.01278
M204 S1000
G1 X176.915 Y64.37 F10800
G1 X176.549 Y64.498
M204 S800
G1 F1200
G1 X176.631 Y64.795 E.00966
G1 X176.659 Y65.773 E.03068
G1 X176.451 Y66.73 E.03071
G1 X176.021 Y67.609 E.03068
G1 X175.393 Y68.359 E.03067
G1 X174.603 Y68.937 E.03069
G1 X173.698 Y69.31 E.03069
G1 X172.731 Y69.455 E.03066
G1 X171.779 Y69.368 E.02997
G1 X170.836 Y69.044 E.03126
G1 X170.011 Y68.51 E.03081
G1 X169.342 Y67.796 E.03068
G1 X168.863 Y66.942 E.0307
G1 X168.783 Y66.73 E.0071
G1 X168.603 Y65.999 E.0236
G1 X168.575 Y65.021 E.03068
G1 X168.783 Y64.064 E.03071
G1 X169.213 Y63.185 E.03068
G1 X169.841 Y62.435 E.03067
G1 X170.631 Y61.857 E.03069
G1 X171.536 Y61.484 E.03069
G1 X172.481 Y61.341 E.02997
G1 X173.473 Y61.429 E.03123
G1 X174.402 Y61.751 E.03083
G1 X175.223 Y62.284 E.03069
G1 X175.892 Y62.998 E.03068
G1 X176.371 Y63.852 E.0307
G1 X176.533 Y64.44 E.01912
M204 S1000
G1 X176.533 Y64.44 F10800
G1 X176.18 Y64.566
M204 S800
G1 F1200
G1 X176.265 Y64.885 E.01035
G1 X176.282 Y65.773 E.02785
G1 X176.085 Y66.639 E.02785
G1 X175.687 Y67.433 E.02785
G1 X175.111 Y68.109 E.02785
G1 X174.389 Y68.627 E.02786
G1 X173.565 Y68.957 E.02783
G1 X172.685 Y69.08 E.02786
G1 X171.823 Y68.994 E.02716
G1 X170.968 Y68.691 E.02844
G1 X170.226 Y68.199 E.02791
G1 X169.624 Y67.545 E.02787
G1 X169.197 Y66.767 E.02783
G1 X169.149 Y66.639 E.00429
G1 X168.969 Y65.909 E.02357
G1 X168.952 Y65.021 E.02785
G1 X169.149 Y64.155 E.02785
G1 X169.547 Y63.361 E.02785
G1 X170.124 Y62.685 E.02787
G1 X170.845 Y62.167 E.02784
G1 X171.669 Y61.837 E.02783
G1 X172.527 Y61.715 E.02717
G1 X173.43 Y61.804 E.02845
G1 X174.268 Y62.104 E.02791
G1 X175.009 Y62.595 E.02787
G1 X175.61 Y63.249 E.02785
G1 X176.037 Y64.027 E.02783
G1 X176.165 Y64.508 E.01561
M204 S1000
G1 X176.165 Y64.508 F10800
G1 X175.812 Y64.633
M204 S800
;TYPE:External perimeter
G1 F1200
G1 X175.899 Y64.976 E.0111
G1 X175.905 Y65.773 E.02499
G1 X175.719 Y66.549 E.02502
G1 X175.353 Y67.258 E.02502
G1 X174.828 Y67.859 E.02502
G1 X174.175 Y68.316 E.02499
G1 X173.431 Y68.604 E.02501
G1 X172.64 Y68.706 E.02501
G1 X171.868 Y68.619 E.02436
G1 X171.1 Y68.338 E.02564
G1 X170.44 Y67.889 E.02503
G1 X169.907 Y67.295 E.02502
G1 X169.515 Y66.549 E.02642
G1 X169.335 Y65.818 E.0236
G1 X169.329 Y65.021 E.02499
G1 X169.515 Y64.245 E.02502
G1 X169.881 Y63.536 E.02502
G1 X170.406 Y62.935 E.02502
G1 X171.059 Y62.478 E.02499
G1 X171.803 Y62.19 E.02501
G1 X172.573 Y62.089 E.02435
G1 X173.386 Y62.179 E.02565
G1 X174.135 Y62.456 E.02504
G1 X174.794 Y62.905 E.025
G1 X175.327 Y63.499 E.02502
G1 X175.703 Y64.202 E.025
G1 X175.798 Y64.575 E.01207
M204 S1000
;WIPE_START
G1 F8640
G1 X175.812 Y64.633 E-.01378
G1 X175.899 Y64.976 E-.08171
G1 X175.905 Y65.773 E-.18403
G1 X175.719 Y66.549 E-.18426
G1 X175.353 Y67.258 E-.18424
G1 X174.92 Y67.754 E-.15198
;WIPE_END
G1 Z.6 F720
G1 X164.328 Y64.955 F10800
G1 Z.2 F720
G1 E.8 F2100
M204 S800
;TYPE:Perimeter
G1 F1200
G1 X164.336 Y65.021 E.00208
G1 X164.336 Y65.773 E.02358
G1 X164.298 Y66.089 E.00998
G1 X164.118 Y66.82 E.0236
G1 X164.005 Y67.117 E.00996
G1 X163.655 Y67.784 E.02362
G1 X163.474 Y68.046 E.00998
G1 X162.975 Y68.609 E.02359
G1 X162.737 Y68.82 E.00997
G1 X162.118 Y69.247 E.02358
G1 X161.836 Y69.395 E.00999
G1 X161.132 Y69.662 E.02361
G1 X160.823 Y69.738 E.00998
G1 X160.076 Y69.829 E.02359
G1 X159.758 Y69.829 E.00997
G1 X159.011 Y69.738 E.02359
G1 X158.704 Y69.663 E.00991
G1 X158.019 Y69.405 E.02295
G1 X157.741 Y69.26 E.00983
