; generated by PrusaSlicer 2.8.0+win64 on 2024-12-26 at 19:10:56 UTC


;
;
; 

; external perimeters extrusion width = 0.60mm
; perimeters extrusion width = 0.50mm
; infill extrusion width = 0.50mm
; solid infill extrusion width = 0.50mm
; top infill extrusion width = 0.45mm
; support material extrusion width = 0.38mm
; first layer extrusion width = 0.42mm

M73 P0 R120
M73 Q0 S121
M201 X1000 Y1000 Z200 E5000 ; sets maximum accelerations, mm/sec^2
M203 X200 Y200 Z12 E120 ; sets maximum feedrates, mm / sec
M204 S1250 T1250 ; sets acceleration (S) and retract acceleration (R), mm/sec^2
M205 X8.00 Y8.00 Z0.40 E4.50 ; sets the jerk limits, mm/sec
M205 S0 T0 ; sets the minimum extruding and travel feed rate, mm/sec

; printing object temp_box_top.stl id:0 copy 0
; stop printing object temp_box_top.stl id:0 copy 0

;TYPE:Custom
M862.3 P "MK3S" ; printer model check
M862.1 P0.4 ; nozzle diameter check
M115 U3.13.3 ; tell printer latest fw version
G90 ; use absolute coordinates
M83 ; extruder relative mode
M104 S205 ; set extruder temp
M140 S67 ; set bed temp
M190 S67 ; wait for bed temp
M109 S205 ; wait for extruder temp
G28 W ; home all without mesh bed level
G80 X131.237 Y7.61816 W85.5 H82.2903 ; mesh bed levelling

G1 Z0.2 F720
G1 Y-3 F1000 ; go outside print area
G92 E0
G1 X60 E9 F1000 ; intro line
G1 X100 E12.5 F1000 ; intro line
M73 P0 R119

G92 E0
M221 S95

; Don't change E values below. Excessive value can damage the printer.

M907 E538 ; set extruder motor current
G21 ; set units to millimeters
G90 ; use absolute coordinates
M83 ; use relative distances for extrusion
M900 K0.05 ; Filament gcode LA 1.5
M900 K30 ; Filament gcode LA 1.0
M107
;LAYER_CHANGE
;Z:0.2
;HEIGHT:0.2
G1 E-.8 F2100
G1 Z.6 F720
; printing object temp_box_top.stl id:0 copy 0
G1 X173.847 Y7.807 F10800
G1 Z.2 F720
G1 E.8 F2100
M204 S800
;TYPE:Support material
;WIDTH:0.42
G1 F1200
G1 X174.405 Y7.832 E.01751
G1 X175.5 Y8.056 E.03504
G1 X176.569 Y8.488 E.03615
G1 X177.542 Y9.108 E.03617
G1 X178.387 Y9.893 E.03616
G1 X179.074 Y10.819 E.03615
G1 X179.583 Y11.855 E.03619
G1 X179.894 Y12.965 E.03614
G1 X180 Y14.114 E.03618
G1 X179.894 Y15.263 E.03618
G1 X179.583 Y16.373 E.03614
G1 X179.074 Y17.409 E.03619
G1 X178.181 Y18.527 E.04486
G1 X169.139 Y18.527 E.28351
G1 X168.401 Y17.615 E.03678
G1 X167.885 Y16.658 E.03409
G1 X167.512 Y15.521 E.03752
G1 X167.416 Y14.996 E.01673
G1 X167.359 Y14.381 E.01937
G1 X167.416 Y13.232 E.03607
G1 X167.512 Y12.707 E.01673
G1 X167.885 Y11.57 E.03752
G1 X168.401 Y10.613 E.03409
G1 X169.124 Y9.714 E.03617
G1 X169.998 Y8.962 E.03615
G1 X170.994 Y8.381 E.03615
G1 X172.079 Y7.99 E.03616
G1 X173.19 Y7.807 E.0353
G1 X173.791 Y7.807 E.01884
M204 S1000
G1 X173.791 Y7.807 F10800
G1 X179.434 Y16.276
M204 S800
G1 F1200
G1 X179.434 Y12.58 E.11589
G1 X179.264 Y11.977 E.01964
G1 X179.015 Y11.468 E.01777
G1 X179.015 Y16.76 E.16593
G1 X178.596 Y17.484 E.02623
G1 X178.596 Y10.744 E.21133
G1 X178.177 Y10.18 E.02203
G1 X178.177 Y18.048 E.2467
G1 X178.045 Y18.188 E.00603
G1 X177.758 Y18.188 E.009
G1 X177.758 Y9.772 E.26388
G1 X177.339 Y9.382 E.01795
G1 X177.339 Y18.188 E.27611
G1 X176.92 Y18.188 E.01314
G1 X176.92 Y9.114 E.28451
G1 X176.501 Y8.847 E.01558
G1 X176.501 Y18.188 E.29288
G1 X176.082 Y18.188 E.01314
G1 X176.082 Y8.657 E.29884
G1 X175.663 Y8.488 E.01417
G1 X175.663 Y18.188 E.30414
G1 X175.244 Y18.188 E.01314
G1 X175.244 Y8.35 E.30846
G1 X174.825 Y8.264 E.01341
G1 X174.825 Y18.188 E.31116
G1 X174.406 Y18.188 E.01314
G1 X174.406 Y8.178 E.31386
G1 X173.987 Y8.153 E.01316
G1 X173.987 Y18.188 E.31464
G1 X173.568 Y18.188 E.01314
G1 X173.568 Y8.146 E.31486
G1 X173.149 Y8.157 E.01314
G1 X173.149 Y18.188 E.31451
G1 X172.73 Y18.188 E.01314
G1 X172.73 Y8.226 E.31235
G1 X172.311 Y8.295 E.01331
G1 X172.311 Y18.188 E.31019
G1 X171.892 Y18.188 E.01314
G1 X171.892 Y8.418 E.30633
G1 X171.473 Y8.569 E.01396
G1 X171.473 Y18.188 E.3016
G1 X171.054 Y18.188 E.01314
G1 X171.054 Y8.738 E.2963
G1 X170.635 Y8.983 E.01522
G1 X170.635 Y18.188 E.28862
G1 X170.216 Y18.188 E.01314
G1 X170.216 Y9.227 E.28097
G1 X169.797 Y9.582 E.01722
G1 X169.797 Y18.188 E.26984
G1 X169.378 Y18.188 E.01314
G1 X169.378 Y9.943 E.25852
G1 X168.959 Y10.46 E.02087
G1 X168.959 Y17.768 E.22914
G1 X168.54 Y17.159 E.02318
G1 X168.54 Y11.069 E.19095
G1 X168.121 Y11.905 E.02932
G1 X168.121 Y16.324 E.13855
G1 X167.753 Y14.95 E.0446
G1 X167.702 Y12.657 E.07191
M204 S1000
;WIPE_START
G1 F8640
G1 X167.753 Y14.95 E-.52959
G1 X168.056 Y16.081 E-.27041
;WIPE_END
G1 Z.6 F720
G1 X178.055 Y79.187 F10800
G1 Z.2 F720
G1 E.8 F2100
M204 S800
G1 F1200
G1 X178.743 Y80.113 E.03617
G1 X179.251 Y81.149 E.03618
G1 X179.563 Y82.259 E.03615
G1 X179.668 Y83.406 E.03611
G1 X179.563 Y84.558 E.03627
G1 X179.251 Y85.667 E.03612
G1 X178.743 Y86.703 E.03618
G1 X178.055 Y87.629 E.03617
G1 X177.211 Y88.414 E.03614
G1 X176.238 Y89.034 E.03617
G1 X175.169 Y89.466 E.03615
G1 X174.039 Y89.697 E.03616
G1 X172.885 Y89.72 E.03619
G1 X171.748 Y89.532 E.03613
G1 X170.663 Y89.141 E.03616
G1 X169.667 Y88.56 E.03615
G1 X168.793 Y87.808 E.03615
G1 X168.07 Y86.909 E.03617
G1 X167.553 Y85.952 E.0341
G1 X167.181 Y84.815 E.03751
G1 X167.028 Y83.675 E.03606
G1 X167.085 Y82.526 E.03607
G1 X167.349 Y81.407 E.03605
G1 X167.553 Y80.864 E.01819
G1 X168.07 Y79.907 E.0341
G1 X168.761 Y79.047 E.03459
G1 X177.905 Y79.047 E.2867
G1 X178.014 Y79.149 E.00468
M204 S1000
G1 X178.014 Y79.149 F10800
G1 X179.015 Y85.764
M204 S800
G1 F1200
G1 X179.015 Y81.562 E.13175
G1 X178.596 Y80.583 E.03339
G1 X178.596 Y86.232 E.17712
G1 X178.177 Y86.896 E.02462
G1 X178.177 Y79.92 E.21873
G1 X177.758 Y79.386 E.02128
G1 X177.758 Y87.442 E.25259
G1 X177.339 Y87.832 E.01795
G1 X177.339 Y79.386 E.26482
G1 X176.92 Y79.386 E.01314
G1 X176.92 Y88.197 E.27626
G1 X176.501 Y88.464 E.01558
G1 X176.501 Y79.386 E.28463
G1 X176.082 Y79.386 E.01314
G1 X176.082 Y88.731 E.29301
G1 X175.663 Y88.9 E.01417
G1 X175.663 Y79.386 E.2983
G1 X175.244 Y79.386 E.01314
G1 X175.244 Y89.07 E.30364
G1 X174.825 Y89.19 E.01367
G1 X174.825 Y79.386 E.3074
G1 X174.406 Y79.386 E.01314
G1 X174.406 Y89.276 E.31009
G1 X173.987 Y89.359 E.01339
G1 X173.987 Y79.386 E.3127
G1 X173.568 Y79.386 E.01314
G1 X173.568 Y89.367 E.31295
G1 X173.149 Y89.375 E.01314
G1 X173.149 Y79.386 E.3132
G1 X172.73 Y79.386 E.01314
G1 X172.73 Y89.35 E.31241
G1 X172.311 Y89.281 E.01331
G1 X172.311 Y79.386 E.31025
G1 X171.892 Y79.386 E.01314
G1 X171.892 Y89.212 E.30809
G1 X171.473 Y89.073 E.01384
G1 X171.473 Y79.386 E.30373
G1 X171.054 Y79.386 E.01314
G1 X171.054 Y88.922 E.29899
G1 X170.635 Y88.733 E.01441
G1 X170.635 Y79.386 E.29307
G1 X170.216 Y79.386 E.01314
G1 X170.216 Y88.488 E.28539
G1 X169.864 Y88.283 E.01277
G1 X169.797 Y88.225 E.00278
G1 X169.797 Y79.386 E.27714
G1 X169.378 Y79.386 E.01314
G1 X169.378 Y87.864 E.26582
G1 X168.959 Y87.473 E.01797
G1 X168.924 Y79.386 E.25356
G1 X168.54 Y79.863 E.0192
G1 X168.54 Y86.953 E.2223
G1 X168.121 Y86.29 E.02459
G1 X168.121 Y80.526 E.18073
G1 X167.702 Y81.432 E.0313
G1 X167.702 Y85.866 E.13902
M204 S1000
;WIPE_START
G1 F8640
G1 X167.702 Y82.402 E-.8
;WIPE_END
G1 Z.6 F720
G1 X206.693 Y51.641 F10800
G1 Z.2 F720
G1 E.8 F2100
M204 S800
;TYPE:Perimeter
;WIDTH:0.419999
G1 F1200
G1 X206.62 Y51.723 E.00344
G1 X206.228 Y51.954 E.01427
G1 X205.869 Y52.034 E.01153
G1 X178.821 Y52.038 E.84807
G1 X178.469 Y51.991 E.01113
G1 X178.106 Y51.828 E.01248
G1 X177.793 Y51.546 E.01321
G1 X177.576 Y51.158 E.01394
G1 X177.501 Y50.718 E.01399
G1 X177.501 Y35.976 E.46222
G1 X177.577 Y35.535 E.01403
G1 X177.79 Y35.151 E.01377
G1 X178.05 Y34.904 E.01124
G1 X178.463 Y34.705 E.01437
G1 X178.875 Y34.656 E.01301
G1 X179.447 Y34.656 E.01793
G1 X179.03 Y34.323 E.01673
G1 X178.701 Y33.931 E.01605
G1 X178.472 Y33.535 E.01434
G1 X178.297 Y33.054 E.01605
G1 X178.218 Y32.627 E.01362
G1 X178.217 Y32.091 E.01681
G1 X178.262 Y31.753 E.01069
G1 X178.472 Y31.159 E.01975
G1 X178.626 Y30.861 E.01052
G1 X179.03 Y30.371 E.01991
G1 X179.381 Y30.076 E.01438
G1 X179.824 Y29.821 E.01603
G1 X180.248 Y29.665 E.01417
G1 X180.886 Y29.559 E.02028
G1 X181.518 Y29.606 E.01987
G1 X182.175 Y29.832 E.02178
G1 X182.572 Y30.061 E.01437
G1 X182.963 Y30.39 E.01602
G1 X183.258 Y30.741 E.01438
G1 X183.513 Y31.183 E.016
G1 X183.645 Y31.502 E.01082
G1 X183.757 Y32.091 E.0188
G1 X183.757 Y32.603 E.01605
G1 X183.677 Y33.054 E.01436
G1 X183.502 Y33.535 E.01605
G1 X183.273 Y33.931 E.01434
G1 X182.944 Y34.323 E.01605
G1 X182.528 Y34.656 E.01671
G1 X205.764 Y34.656 E.72855
G1 X206.111 Y34.702 E.01098
G1 X206.497 Y34.878 E.0133
G1 X206.748 Y35.096 E.01042
G1 X206.952 Y35.401 E.0115
G1 X207.068 Y35.775 E.01228
G1 X207.083 Y35.976 E.00632
G1 X207.083 Y50.718 E.46222
G1 X207.022 Y51.115 E.01259
G1 X206.855 Y51.46 E.01202
G1 X206.733 Y51.597 E.00575
M204 S1000
G1 X206.733 Y51.597 F10800
G1 X206.417 Y51.373
M204 S800
G1 F1200
G1 X206.282 Y51.505 E.00592
G1 X206.005 Y51.63 E.00953
G1 X205.764 Y51.661 E.00762
G1 X178.821 Y51.661 E.84478
G1 X178.474 Y51.595 E.01107
G1 X178.195 Y51.424 E.01026
G1 X177.976 Y51.138 E.01129
G1 X177.88 Y50.783 E.01153
G1 X177.878 Y35.976 E.46426
G1 X177.94 Y35.639 E.01074
G1 X178.142 Y35.321 E.01181
G1 X178.387 Y35.139 E.00957
G1 X178.565 Y35.068 E.00601
G1 X179.371 Y35.033 E.0253
G1 X180.798 Y35.055 E.04475
;WIDTH:0.419866
G1 X181.687 Y35.033 E.02787
;WIDTH:0.419999
G1 X205.764 Y35.033 E.75492
G1 X206.102 Y35.096 E.01078
G1 X206.379 Y35.262 E.01013
G1 X206.612 Y35.565 E.01198
G1 X206.695 Y35.832 E.00877
G1 X206.706 Y35.976 E.00453
G1 X206.706 Y50.718 E.46222
G1 X206.663 Y51.002 E.00901
G1 X206.543 Y51.248 E.00858
G1 X206.46 Y51.331 E.00368
M204 S1000
G1 X206.46 Y51.331 F10800
G1 X206.166 Y51.103
M204 S800
G1 F1200
G1 X206.131 Y51.149 E.00181
G1 X205.909 Y51.265 E.00785
G1 X204.796 Y51.284 E.0349
G1 X178.821 Y51.284 E.81443
G1 X178.544 Y51.212 E.00897
G1 X178.352 Y51.036 E.00817
G1 X178.259 Y50.782 E.00848
G1 X178.255 Y35.976 E.46423
G1 X178.329 Y35.696 E.00908
M73 Q0 S120
G1 X178.49 Y35.516 E.00757
G1 X178.667 Y35.431 E.00616
G1 X179.371 Y35.41 E.02208
G1 X180.798 Y35.41 E.04474
G1 X205.764 Y35.41 E.78279
G1 X206.022 Y35.472 E.00832
G1 X206.233 Y35.66 E.00886
G1 X206.323 Y35.89 E.00774
G1 X206.329 Y35.976 E.0027
G1 X206.329 Y50.718 E.46222
G1 X206.272 Y50.966 E.00798
G1 X206.202 Y51.056 E.00357
M204 S1000
G1 X206.202 Y51.056 F10800
G1 X205.905 Y50.821
M204 S800
;TYPE:External perimeter
G1 F1200
G1 X205.886 Y50.862 E.00142
G1 X205.764 Y50.907 E.00408
G1 X178.821 Y50.907 E.84478
G1 X178.674 Y50.837 E.0051
G1 X178.632 Y50.718 E.00396
G1 X178.632 Y35.976 E.46222
G1 X178.685 Y35.845 E.00443
G1 X178.821 Y35.787 E.00464
G1 X180.798 Y35.787 E.06199
G1 X205.764 Y35.787 E.78279
G1 X205.904 Y35.85 E.00481
G1 X205.952 Y35.976 E.00423
G1 X205.952 Y50.718 E.46222
G1 X205.93 Y50.766 E.00166
M204 S1000
;WIPE_START
G1 F8640
G1 X205.905 Y50.821 E-.01395
G1 X205.886 Y50.862 E-.01043
G1 X205.764 Y50.907 E-.03003
G1 X202.535 Y50.907 E-.74559
;WIPE_END
G1 Z.6 F720
G1 X180.166 Y34.603 F10800
G1 Z.2 F720
G1 E.8 F2100
M204 S800
;TYPE:Perimeter
G1 F1200
G1 X180.012 Y34.547 E.00514
G1 X179.569 Y34.291 E.01604
G1 X179.284 Y34.039 E.01193
G1 X178.882 Y33.531 E.02031
G1 X178.651 Y32.925 E.02033
G1 X178.595 Y32.64 E.00911
G1 X178.594 Y32.091 E.01721
G1 X178.651 Y31.769 E.01025
G1 X178.826 Y31.288 E.01605
G1 X178.99 Y31.005 E.01026
G1 X179.319 Y30.613 E.01605
G1 X179.569 Y30.403 E.01024
G1 X180.012 Y30.147 E.01604
G1 X180.315 Y30.036 E.01012
G1 X180.907 Y29.936 E.01882
G1 X181.439 Y29.975 E.01673
G1 X182.046 Y30.186 E.02015
G1 X182.329 Y30.35 E.01026
G1 X182.721 Y30.678 E.01603
G1 X182.931 Y30.929 E.01026
G1 X183.187 Y31.372 E.01604
G1 X183.348 Y31.847 E.01573
G1 X183.38 Y32.603 E.02373
G1 X183.323 Y32.925 E.01025
G1 X183.148 Y33.406 E.01605
G1 X182.984 Y33.689 E.01026
G1 X182.656 Y34.081 E.01603
G1 X182.405 Y34.291 E.01026
G1 X181.962 Y34.547 E.01604
G1 X181.654 Y34.659 E.01028
;WIDTH:0.419866
G1 X181.146 Y34.726 E.01606
;WIDTH:0.375132
G1 X180.827 Y34.726 E.00881
;WIDTH:0.419865
G1 X180.32 Y34.659 E.01603
;WIDTH:0.419999
G1 X180.222 Y34.623 E.00327
M204 S1000
G1 X180.222 Y34.623 F10800
G1 X180.297 Y34.242
M204 S800
G1 F1200
G1 X179.758 Y33.965 E.019
G1 X179.279 Y33.447 E.02212
G1 X179.181 Y33.277 E.00615
G1 X179.006 Y32.796 E.01605
G1 X178.972 Y32.625 E.00547
G1 X178.972 Y32.091 E.01674
G1 X179.006 Y31.898 E.00614
G1 X179.181 Y31.417 E.01605
G1 X179.279 Y31.247 E.00615
G1 X179.607 Y30.856 E.016
G1 X179.758 Y30.729 E.00619
G1 X180.201 Y30.474 E.01603
G1 X180.382 Y30.407 E.00605
G1 X180.927 Y30.312 E.01735
G1 X181.436 Y30.366 E.01605
G1 X181.917 Y30.54 E.01604
G1 X182.087 Y30.639 E.00617
G1 X182.479 Y30.967 E.01603
G1 X182.605 Y31.118 E.00617
G1 X182.86 Y31.56 E.016
G1 X182.983 Y31.945 E.01267
G1 X183.003 Y32.603 E.02064
G1 X182.794 Y33.277 E.02213
G1 X182.367 Y33.838 E.02211
G1 X181.773 Y34.22 E.02214
G1 X181.085 Y34.376 E.02212
G1 X180.889 Y34.376 E.00615
G1 X180.385 Y34.288 E.01604
G1 X180.35 Y34.269 E.00125
M204 S1000
G1 X180.35 Y34.269 F10800
G1 X180.421 Y33.9
M204 S800
;TYPE:External perimeter
G1 F1200
G1 X179.946 Y33.638 E.01701
G1 X179.568 Y33.204 E.01805
G1 X179.349 Y32.61 E.01985
G1 X179.349 Y32.091 E.01627
G1 X179.535 Y31.546 E.01806
G1 X179.896 Y31.098 E.01804
G1 X180.389 Y30.8 E.01806
G1 X180.925 Y30.692 E.01714
G1 X181.307 Y30.72 E.01201
G1 X181.788 Y30.895 E.01605
G1 X182.236 Y31.256 E.01804
G1 X182.507 Y31.703 E.01639
G1 X182.626 Y32.091 E.01272
G1 X182.626 Y32.603 E.01605
G1 X182.439 Y33.148 E.01807
G1 X182.078 Y33.596 E.01804
G1 X181.585 Y33.894 E.01806
G1 X181.02 Y34.005 E.01805
G1 X180.477 Y33.92 E.01723
M204 S1000
;WIPE_START
G1 F8640
G1 X180.421 Y33.9 E-.01373
G1 X179.946 Y33.638 E-.12526
G1 X179.568 Y33.204 E-.13289
G1 X179.349 Y32.61 E-.14618
G1 X179.349 Y32.091 E-.11984
G1 X179.535 Y31.546 E-.13297
G1 X179.886 Y31.111 E-.12913
;WIPE_END
G1 Z.6 F720
G1 X182.141 Y65.533 F10800
G1 Z.2 F720
G1 E.8 F2100
M204 S800
;TYPE:Perimeter
G1 F1200
G1 X182.266 Y65.794 E.00907
G1 X182.372 Y66.114 E.01057
G1 X182.52 Y66.873 E.02425
G1 X182.542 Y67.209 E.01056
G1 X182.492 Y67.981 E.02426
G1 X182.428 Y68.312 E.01057
G1 X182.184 Y69.046 E.02425
G1 X182.038 Y69.35 E.01057
G1 X181.616 Y69.997 E.02422
G1 X181.397 Y70.254 E.01059
G1 X180.825 Y70.774 E.02424
G1 X180.548 Y70.967 E.01059
G1 X179.863 Y71.325 E.02423
G1 X179.546 Y71.441 E.01058
G1 X178.793 Y71.613 E.02422
G1 X178.457 Y71.646 E.01059
G1 X177.684 Y71.621 E.02425
G1 X177.351 Y71.567 E.01058
G1 X176.61 Y71.347 E.02424
G1 X176.302 Y71.21 E.01057
G1 X175.641 Y70.81 E.02422
G1 X175.377 Y70.599 E.0106
G1 X174.839 Y70.044 E.02424
G1 X174.637 Y69.774 E.01057
G1 X174.258 Y69.1 E.02424
G1 X174.131 Y68.787 E.01059
G1 X173.935 Y68.04 E.02421
G1 X173.892 Y67.512 E.01661
G1 X173.892 Y66.932 E.01819
G1 X173.935 Y66.597 E.01059
G1 X174.131 Y65.85 E.02421
G1 X174.258 Y65.537 E.01059
G1 X174.637 Y64.864 E.02422
G1 X175.033 Y64.361 E.02007
G1 X175.82 Y63.702 E.03218
G1 X176.108 Y63.528 E.01055
G1 X176.815 Y63.215 E.02424
G1 X177.136 Y63.119 E.01051
G1 X177.877 Y62.998 E.02354
G1 X178.511 Y62.991 E.01988
G1 X179.092 Y63.069 E.01838
G1 X180.063 Y63.401 E.03218
G1 X180.362 Y63.557 E.01057
G1 X180.996 Y63.999 E.02423
G1 X181.36 Y64.361 E.0161
G1 X181.747 Y64.814 E.01868
G1 X181.931 Y65.097 E.01058
G1 X182.115 Y65.479 E.01329
M204 S1000
G1 X182.115 Y65.479 F10800
G1 X181.79 Y65.675
M204 S800
G1 F1200
G1 X181.955 Y66.023 E.01208
G1 X182.081 Y66.591 E.01824
G1 X182.167 Y67.122 E.01687
G1 X182.116 Y67.957 E.02623
G1 X181.933 Y68.605 E.02111
G1 X181.756 Y69.087 E.0161
G1 X181.451 Y69.56 E.01765
G1 X181.144 Y69.975 E.01619
G1 X180.572 Y70.495 E.02424
G1 X180.374 Y70.633 E.00757
G1 X179.689 Y70.99 E.02422
M73 P0 R118
G1 X178.709 Y71.246 E.03176
G1 X178.469 Y71.269 E.00756
G1 X177.697 Y71.244 E.02422
G1 X176.718 Y70.986 E.03174
G1 X175.836 Y70.487 E.03177
G1 X175.648 Y70.337 E.00754
G1 X175.105 Y69.777 E.02446
G1 X174.741 Y69.189 E.02168
G1 X174.496 Y68.692 E.01737
G1 X174.3 Y67.944 E.02424
G1 X174.269 Y67.298 E.02028
G1 X174.286 Y66.755 E.01703
G1 X174.496 Y65.945 E.02624
G1 X174.82 Y65.307 E.02244
G1 X175.069 Y64.9 E.01496
G1 X175.451 Y64.479 E.01782
G1 X176.055 Y63.997 E.02423
G1 X176.261 Y63.872 E.00756
